; Generated by OrcaSlicer Odin
; https://github.com/SoftFever/OrcaSlicer
;
; Total layers: 41
; Estimated print time: 1.2 minutes
; Filament used: 4.05 m
; Bed temperature: 60°C
; Extruder temperature: 200°C
; Filament diameter: 1.75 mm
;
; Start sequence
G21 ; set units to millimeters
G90 ; use absolute coordinates
M82 ; use absolute distances for extrusion
G92 E0 ; reset extruder position
G28 ; home all axes
M140 S60 ; set bed temperature
M104 S200 ; set extruder temperature
M190 S60 ; wait for bed temperature
M109 S200 ; wait for extruder temperature
G1 Z2.0 F3000 ; move Z to 2mm
G1 X10.1 Y20 Z0.28 F5000.0 ; move to start position
G1 X10.1 Y200.0 Z0.28 F1500.0 E15 ; draw 1st line
G1 X10.4 Y200.0 Z0.28 F5000.0 ; move to side a little
G1 X10.4 Y20 Z0.28 F1500.0 E30 ; draw 2nd line
G92 E0 ; reset extruder
;
; LAYER 0
; Z: -1.500
G1 Z-1.500 F300 ; move to layer height
; Path: PERIMETER_OUTER (3 moves)
G1 E-1.50000 F1500 ; retract
G0 X-2.000 Y-5.000 F9000 ; travel to start
G1 E0.00000 F1500 ; unretract
G1 X-2.000 Y-2.000 E0.18900 F3000
G1 X-5.000 Y-5.000 E0.45629 F3000
G1 X-2.000 Y-5.000 E0.64529 F3000
; Path: PERIMETER_INNER (3 moves)
G1 E-0.85471 F1500 ; retract
G0 X-2.400 Y-4.600 F9000 ; travel to start
G1 E0.64529 F1500 ; unretract
G1 X-2.400 Y-2.966 E0.74825 F3600
G1 X-4.034 Y-4.600 E0.89386 F3600
G1 X-2.400 Y-4.600 E0.99682 F3600
; Path: PERIMETER_INNER (3 moves)
G1 E-0.50318 F1500 ; retract
G0 X-2.800 Y-4.200 F9000 ; travel to start
G1 E0.99682 F1500 ; unretract
G1 X-2.800 Y-3.931 E1.01374 F3600
G1 X-3.069 Y-4.200 E1.03768 F3600
G1 X-2.800 Y-4.200 E1.05460 F3600
; Path: PERIMETER_OUTER (3 moves)
G1 E-0.44540 F1500 ; retract
G0 X-2.000 Y-2.000 F9000 ; travel to start
G1 E1.05460 F1500 ; unretract
G1 X-5.000 Y-2.000 E1.24360 F3000
G1 X-5.000 Y-5.000 E1.43260 F3000
G1 X-2.000 Y-2.000 E1.69989 F3000
; Path: PERIMETER_INNER (3 moves)
G1 E0.19989 F1500 ; retract
G0 X-2.966 Y-2.400 F9000 ; travel to start
G1 E1.69989 F1500 ; unretract
G1 X-4.600 Y-2.400 E1.80285 F3600
G1 X-4.600 Y-4.034 E1.90581 F3600
G1 X-2.966 Y-2.400 E2.05142 F3600
; Path: PERIMETER_INNER (3 moves)
G1 E0.55142 F1500 ; retract
G0 X-3.931 Y-2.800 F9000 ; travel to start
G1 E2.05142 F1500 ; unretract
G1 X-4.200 Y-2.800 E2.06835 F3600
G1 X-4.200 Y-3.069 E2.08527 F3600
G1 X-3.931 Y-2.800 E2.10920 F3600
; Path: PERIMETER_OUTER (4 moves)
G1 E0.60920 F1500 ; retract
G0 X-5.000 Y-5.000 F9000 ; travel to start
G1 E2.10920 F1500 ; unretract
G1 X-2.000 Y-5.000 E2.29820 F3000
G1 X-2.000 Y-2.000 E2.48720 F3000
G1 X-5.000 Y-2.000 E2.67620 F3000
G1 X-5.000 Y-5.000 E2.86520 F3000
; Path: PERIMETER_INNER (4 moves)
G1 E1.36520 F1500 ; retract
G0 X-4.600 Y-4.600 F9000 ; travel to start
G1 E2.86520 F1500 ; unretract
G1 X-2.400 Y-4.600 E3.00380 F3600
G1 X-2.400 Y-2.400 E3.14240 F3600
G1 X-4.600 Y-2.400 E3.28100 F3600
G1 X-4.600 Y-4.600 E3.41960 F3600
; Path: PERIMETER_INNER (4 moves)
G1 E1.91960 F1500 ; retract
G0 X-4.200 Y-4.200 F9000 ; travel to start
G1 E3.41960 F1500 ; unretract
G1 X-2.800 Y-4.200 E3.50780 F3600
G1 X-2.800 Y-2.800 E3.59600 F3600
G1 X-4.200 Y-2.800 E3.68420 F3600
G1 X-4.200 Y-4.200 E3.77240 F3600
; Path: PERIMETER_OUTER (3 moves)
G1 E2.27240 F1500 ; retract
G0 X-2.000 Y-1.500 F9000 ; travel to start
G1 E3.77240 F1500 ; unretract
G1 X-2.000 Y1.500 E3.96140 F3000
G1 X-5.000 Y-1.500 E4.22869 F3000
G1 X-2.000 Y-1.500 E4.41769 F3000
; Path: PERIMETER_INNER (3 moves)
G1 E2.91769 F1500 ; retract
G0 X-2.400 Y-1.100 F9000 ; travel to start
G1 E4.41769 F1500 ; unretract
G1 X-2.400 Y0.534 E4.52065 F3600
G1 X-4.034 Y-1.100 E4.66626 F3600
G1 X-2.400 Y-1.100 E4.76923 F3600
; Path: PERIMETER_INNER (3 moves)
G1 E3.26923 F1500 ; retract
G0 X-2.800 Y-0.700 F9000 ; travel to start
G1 E4.76923 F1500 ; unretract
G1 X-2.800 Y-0.431 E4.78615 F3600
G1 X-3.069 Y-0.700 E4.81008 F3600
G1 X-2.800 Y-0.700 E4.82701 F3600
; Path: PERIMETER_OUTER (3 moves)
G1 E3.32701 F1500 ; retract
G0 X-2.000 Y1.500 F9000 ; travel to start
G1 E4.82701 F1500 ; unretract
G1 X-5.000 Y1.500 E5.01601 F3000
G1 X-5.000 Y-1.500 E5.20501 F3000
G1 X-2.000 Y1.500 E5.47229 F3000
; Path: PERIMETER_INNER (3 moves)
G1 E3.97229 F1500 ; retract
G0 X-2.966 Y1.100 F9000 ; travel to start
G1 E5.47229 F1500 ; unretract
G1 X-4.600 Y1.100 E5.57525 F3600
G1 X-4.600 Y-0.534 E5.67822 F3600
G1 X-2.966 Y1.100 E5.82383 F3600
; Path: PERIMETER_INNER (3 moves)
G1 E4.32383 F1500 ; retract
G0 X-3.931 Y0.700 F9000 ; travel to start
G1 E5.82383 F1500 ; unretract
G1 X-4.200 Y0.700 E5.84075 F3600
G1 X-4.200 Y0.431 E5.85767 F3600
G1 X-3.931 Y0.700 E5.88161 F3600
; Path: PERIMETER_OUTER (4 moves)
G1 E4.38161 F1500 ; retract
G0 X-5.000 Y-1.500 F9000 ; travel to start
G1 E5.88161 F1500 ; unretract
G1 X-2.000 Y-1.500 E6.07061 F3000
G1 X-2.000 Y1.500 E6.25961 F3000
G1 X-5.000 Y1.500 E6.44861 F3000
G1 X-5.000 Y-1.500 E6.63761 F3000
; Path: PERIMETER_INNER (4 moves)
G1 E5.13761 F1500 ; retract
G0 X-4.600 Y-1.100 F9000 ; travel to start
G1 E6.63761 F1500 ; unretract
G1 X-2.400 Y-1.100 E6.77621 F3600
G1 X-2.400 Y1.100 E6.91481 F3600
G1 X-4.600 Y1.100 E7.05341 F3600
G1 X-4.600 Y-1.100 E7.19201 F3600
; Path: PERIMETER_INNER (4 moves)
G1 E5.69201 F1500 ; retract
G0 X-4.200 Y-0.700 F9000 ; travel to start
G1 E7.19201 F1500 ; unretract
G1 X-2.800 Y-0.700 E7.28021 F3600
G1 X-2.800 Y0.700 E7.36841 F3600
G1 X-4.200 Y0.700 E7.45661 F3600
G1 X-4.200 Y-0.700 E7.54481 F3600
; Path: PERIMETER_OUTER (3 moves)
G1 E6.04481 F1500 ; retract
G0 X-2.000 Y2.000 F9000 ; travel to start
G1 E7.54481 F1500 ; unretract
G1 X-2.000 Y5.000 E7.73381 F3000
G1 X-5.000 Y2.000 E8.00110 F3000
G1 X-2.000 Y2.000 E8.19010 F3000
; Path: PERIMETER_INNER (3 moves)
G1 E6.69010 F1500 ; retract
G0 X-2.400 Y2.400 F9000 ; travel to start
G1 E8.19010 F1500 ; unretract
G1 X-2.400 Y4.034 E8.29306 F3600
G1 X-4.034 Y2.400 E8.43867 F3600
G1 X-2.400 Y2.400 E8.54163 F3600
; Path: PERIMETER_INNER (3 moves)
G1 E7.04163 F1500 ; retract
G0 X-2.800 Y2.800 F9000 ; travel to start
G1 E8.54163 F1500 ; unretract
G1 X-2.800 Y3.069 E8.55855 F3600
G1 X-3.069 Y2.800 E8.58249 F3600
G1 X-2.800 Y2.800 E8.59941 F3600
; Path: PERIMETER_OUTER (3 moves)
G1 E7.09941 F1500 ; retract
G0 X-2.000 Y5.000 F9000 ; travel to start
G1 E8.59941 F1500 ; unretract
G1 X-5.000 Y5.000 E8.78841 F3000
G1 X-5.000 Y2.000 E8.97741 F3000
G1 X-2.000 Y5.000 E9.24470 F3000
; Path: PERIMETER_INNER (3 moves)
G1 E7.74470 F1500 ; retract
G0 X-2.966 Y4.600 F9000 ; travel to start
G1 E9.24470 F1500 ; unretract
G1 X-4.600 Y4.600 E9.34766 F3600
G1 X-4.600 Y2.966 E9.45062 F3600
G1 X-2.966 Y4.600 E9.59623 F3600
; Path: PERIMETER_INNER (3 moves)
G1 E8.09623 F1500 ; retract
G0 X-3.931 Y4.200 F9000 ; travel to start
G1 E9.59623 F1500 ; unretract
G1 X-4.200 Y4.200 E9.61316 F3600
G1 X-4.200 Y3.931 E9.63008 F3600
G1 X-3.931 Y4.200 E9.65401 F3600
; Path: PERIMETER_OUTER (4 moves)
G1 E8.15401 F1500 ; retract
G0 X-5.000 Y2.000 F9000 ; travel to start
G1 E9.65401 F1500 ; unretract
G1 X-2.000 Y2.000 E9.84301 F3000
G1 X-2.000 Y5.000 E10.03201 F3000
G1 X-5.000 Y5.000 E10.22101 F3000
G1 X-5.000 Y2.000 E10.41001 F3000
; Path: PERIMETER_INNER (4 moves)
G1 E8.91001 F1500 ; retract
G0 X-4.600 Y2.400 F9000 ; travel to start
G1 E10.41001 F1500 ; unretract
G1 X-2.400 Y2.400 E10.54861 F3600
G1 X-2.400 Y4.600 E10.68721 F3600
G1 X-4.600 Y4.600 E10.82581 F3600
G1 X-4.600 Y2.400 E10.96441 F3600
; Path: PERIMETER_INNER (4 moves)
G1 E9.46441 F1500 ; retract
G0 X-4.200 Y2.800 F9000 ; travel to start
G1 E10.96441 F1500 ; unretract
G1 X-2.800 Y2.800 E11.05261 F3600
G1 X-2.800 Y4.200 E11.14081 F3600
G1 X-4.200 Y4.200 E11.22901 F3600
G1 X-4.200 Y2.800 E11.31721 F3600
; Path: PERIMETER_OUTER (3 moves)
G1 E9.81721 F1500 ; retract
G0 X1.500 Y-5.000 F9000 ; travel to start
G1 E11.31721 F1500 ; unretract
G1 X1.500 Y-2.000 E11.50621 F3000
G1 X-1.500 Y-5.000 E11.77350 F3000
G1 X1.500 Y-5.000 E11.96250 F3000
; Path: PERIMETER_INNER (3 moves)
G1 E10.46250 F1500 ; retract
G0 X1.100 Y-4.600 F9000 ; travel to start
G1 E11.96250 F1500 ; unretract
G1 X1.100 Y-2.966 E12.06546 F3600
G1 X-0.534 Y-4.600 E12.21107 F3600
G1 X1.100 Y-4.600 E12.31403 F3600
; Path: PERIMETER_INNER (3 moves)
G1 E10.81403 F1500 ; retract
G0 X0.700 Y-4.200 F9000 ; travel to start
G1 E12.31403 F1500 ; unretract
G1 X0.700 Y-3.931 E12.33096 F3600
G1 X0.431 Y-4.200 E12.35489 F3600
G1 X0.700 Y-4.200 E12.37182 F3600
; Path: PERIMETER_OUTER (3 moves)
G1 E10.87182 F1500 ; retract
G0 X1.500 Y-2.000 F9000 ; travel to start
G1 E12.37182 F1500 ; unretract
G1 X-1.500 Y-2.000 E12.56082 F3000
G1 X-1.500 Y-5.000 E12.74982 F3000
G1 X1.500 Y-2.000 E13.01710 F3000
; Path: PERIMETER_INNER (3 moves)
G1 E11.51710 F1500 ; retract
G0 X0.534 Y-2.400 F9000 ; travel to start
G1 E13.01710 F1500 ; unretract
G1 X-1.100 Y-2.400 E13.12006 F3600
G1 X-1.100 Y-4.034 E13.22303 F3600
G1 X0.534 Y-2.400 E13.36864 F3600
; Path: PERIMETER_INNER (3 moves)
G1 E11.86864 F1500 ; retract
G0 X-0.431 Y-2.800 F9000 ; travel to start
G1 E13.36864 F1500 ; unretract
G1 X-0.700 Y-2.800 E13.38556 F3600
G1 X-0.700 Y-3.069 E13.40248 F3600
G1 X-0.431 Y-2.800 E13.42642 F3600
; Path: PERIMETER_OUTER (4 moves)
G1 E11.92642 F1500 ; retract
G0 X-1.500 Y-5.000 F9000 ; travel to start
G1 E13.42642 F1500 ; unretract
G1 X1.500 Y-5.000 E13.61542 F3000
G1 X1.500 Y-2.000 E13.80442 F3000
G1 X-1.500 Y-2.000 E13.99342 F3000
G1 X-1.500 Y-5.000 E14.18242 F3000
; Path: PERIMETER_INNER (4 moves)
G1 E12.68242 F1500 ; retract
G0 X-1.100 Y-4.600 F9000 ; travel to start
G1 E14.18242 F1500 ; unretract
G1 X1.100 Y-4.600 E14.32102 F3600
G1 X1.100 Y-2.400 E14.45962 F3600
G1 X-1.100 Y-2.400 E14.59822 F3600
G1 X-1.100 Y-4.600 E14.73682 F3600
; Path: PERIMETER_INNER (4 moves)
G1 E13.23682 F1500 ; retract
G0 X-0.700 Y-4.200 F9000 ; travel to start
G1 E14.73682 F1500 ; unretract
G1 X0.700 Y-4.200 E14.82502 F3600
G1 X0.700 Y-2.800 E14.91322 F3600
G1 X-0.700 Y-2.800 E15.00142 F3600
G1 X-0.700 Y-4.200 E15.08962 F3600
; Path: PERIMETER_OUTER (3 moves)
G1 E13.58962 F1500 ; retract
G0 X1.500 Y-1.500 F9000 ; travel to start
G1 E15.08962 F1500 ; unretract
G1 X1.500 Y1.500 E15.27862 F3000
G1 X-1.500 Y-1.500 E15.54591 F3000
G1 X1.500 Y-1.500 E15.73491 F3000
; Path: PERIMETER_INNER (3 moves)
G1 E14.23491 F1500 ; retract
G0 X1.100 Y-1.100 F9000 ; travel to start
G1 E15.73491 F1500 ; unretract
G1 X1.100 Y0.534 E15.83787 F3600
G1 X-0.534 Y-1.100 E15.98348 F3600
G1 X1.100 Y-1.100 E16.08644 F3600
; Path: PERIMETER_INNER (3 moves)
G1 E14.58644 F1500 ; retract
G0 X0.700 Y-0.700 F9000 ; travel to start
G1 E16.08644 F1500 ; unretract
G1 X0.700 Y-0.431 E16.10336 F3600
G1 X0.431 Y-0.700 E16.12730 F3600
G1 X0.700 Y-0.700 E16.14422 F3600
; Path: INFILL (1 moves)
G1 E14.64422 F1500 ; retract
G0 X-2.651 Y-4.349 F9000 ; travel to start
G1 E16.14422 F1500 ; unretract
G1 X-2.335 Y-3.800 E16.18412 F4800
; Path: INFILL (1 moves)
G1 E14.68412 F1500 ; retract
G0 X-2.651 Y-4.349 F9000 ; travel to start
G1 E16.18412 F1500 ; unretract
G1 X-2.968 Y-3.800 E16.22403 F4800
; Path: INFILL (1 moves)
G1 E14.72403 F1500 ; retract
G0 X-4.897 Y-3.200 F9000 ; travel to start
G1 E16.22403 F1500 ; unretract
G1 X-3.800 Y-3.200 E16.29314 F4800
; Path: INFILL (1 moves)
G1 E14.79314 F1500 ; retract
G0 X-4.665 Y-3.200 F9000 ; travel to start
G1 E16.29314 F1500 ; unretract
G1 X-4.349 Y-2.651 E16.33305 F4800
; Path: INFILL (1 moves)
G1 E14.83305 F1500 ; retract
G0 X-4.032 Y-3.200 F9000 ; travel to start
G1 E16.33305 F1500 ; unretract
G1 X-4.349 Y-2.651 E16.37295 F4800
; Path: INFILL (1 moves)
G1 E14.87295 F1500 ; retract
G0 X-3.800 Y-3.800 F9000 ; travel to start
G1 E16.37295 F1500 ; unretract
G1 X-3.200 Y-3.800 E16.41075 F4800
; Path: INFILL (1 moves)
G1 E14.91075 F1500 ; retract
G0 X-3.673 Y-3.800 F9000 ; travel to start
G1 E16.41075 F1500 ; unretract
G1 X-3.327 Y-3.200 E16.45440 F4800
; Path: INFILL (1 moves)
G1 E14.95440 F1500 ; retract
G0 X-3.327 Y-3.800 F9000 ; travel to start
G1 E16.45440 F1500 ; unretract
G1 X-3.673 Y-3.200 E16.49804 F4800
; Path: INFILL (1 moves)
G1 E14.99804 F1500 ; retract
G0 X-2.651 Y-0.849 F9000 ; travel to start
G1 E16.49804 F1500 ; unretract
G1 X-2.335 Y-0.300 E16.53795 F4800
; Path: INFILL (1 moves)
G1 E15.03795 F1500 ; retract
G0 X-2.651 Y-0.849 F9000 ; travel to start
G1 E16.53795 F1500 ; unretract
G1 X-2.968 Y-0.300 E16.57785 F4800
; Path: INFILL (1 moves)
G1 E15.07785 F1500 ; retract
G0 X-4.897 Y0.300 F9000 ; travel to start
G1 E16.57785 F1500 ; unretract
G1 X-3.800 Y0.300 E16.64697 F4800
; Path: INFILL (1 moves)
G1 E15.14697 F1500 ; retract
G0 X-4.665 Y0.300 F9000 ; travel to start
G1 E16.64697 F1500 ; unretract
G1 X-4.349 Y0.849 E16.68687 F4800
; Path: INFILL (1 moves)
G1 E15.18687 F1500 ; retract
G0 X-4.032 Y0.300 F9000 ; travel to start
G1 E16.68687 F1500 ; unretract
G1 X-4.349 Y0.849 E16.72677 F4800
; Path: INFILL (1 moves)
G1 E15.22677 F1500 ; retract
G0 X-3.800 Y-0.300 F9000 ; travel to start
G1 E16.72677 F1500 ; unretract
G1 X-3.200 Y-0.300 E16.76457 F4800
; Path: INFILL (1 moves)
G1 E15.26457 F1500 ; retract
G0 X-3.673 Y-0.300 F9000 ; travel to start
G1 E16.76457 F1500 ; unretract
G1 X-3.327 Y0.300 E16.80822 F4800
; Path: INFILL (1 moves)
G1 E15.30822 F1500 ; retract
G0 X-3.327 Y-0.300 F9000 ; travel to start
G1 E16.80822 F1500 ; unretract
G1 X-3.673 Y0.300 E16.85187 F4800
; Path: INFILL (1 moves)
G1 E15.35187 F1500 ; retract
G0 X-2.651 Y2.651 F9000 ; travel to start
G1 E16.85187 F1500 ; unretract
G1 X-2.335 Y3.200 E16.89177 F4800
; Path: INFILL (1 moves)
G1 E15.39177 F1500 ; retract
G0 X-2.651 Y2.651 F9000 ; travel to start
G1 E16.89177 F1500 ; unretract
G1 X-2.968 Y3.200 E16.93167 F4800
; Path: INFILL (1 moves)
G1 E15.43167 F1500 ; retract
G0 X-4.897 Y3.800 F9000 ; travel to start
G1 E16.93167 F1500 ; unretract
G1 X-3.800 Y3.800 E17.00079 F4800
; Path: INFILL (1 moves)
G1 E15.50079 F1500 ; retract
G0 X-4.665 Y3.800 F9000 ; travel to start
G1 E17.00079 F1500 ; unretract
G1 X-4.349 Y4.349 E17.04069 F4800
; Path: INFILL (1 moves)
G1 E15.54069 F1500 ; retract
G0 X-4.032 Y3.800 F9000 ; travel to start
G1 E17.04069 F1500 ; unretract
G1 X-4.349 Y4.349 E17.08059 F4800
; Path: INFILL (1 moves)
G1 E15.58059 F1500 ; retract
G0 X-3.800 Y3.200 F9000 ; travel to start
G1 E17.08059 F1500 ; unretract
G1 X-3.200 Y3.200 E17.11839 F4800
; Path: INFILL (1 moves)
G1 E15.61839 F1500 ; retract
G0 X-3.673 Y3.200 F9000 ; travel to start
G1 E17.11839 F1500 ; unretract
G1 X-3.327 Y3.800 E17.16204 F4800
; Path: INFILL (1 moves)
G1 E15.66204 F1500 ; retract
G0 X-3.327 Y3.200 F9000 ; travel to start
G1 E17.16204 F1500 ; unretract
G1 X-3.673 Y3.800 E17.20569 F4800
; Path: INFILL (1 moves)
G1 E15.70569 F1500 ; retract
G0 X0.849 Y-4.349 F9000 ; travel to start
G1 E17.20569 F1500 ; unretract
G1 X1.165 Y-3.800 E17.24559 F4800
; Path: INFILL (1 moves)
G1 E15.74559 F1500 ; retract
G0 X0.849 Y-4.349 F9000 ; travel to start
G1 E17.24559 F1500 ; unretract
G1 X0.532 Y-3.800 E17.28550 F4800
; Path: INFILL (1 moves)
G1 E15.78550 F1500 ; retract
G0 X-1.397 Y-3.200 F9000 ; travel to start
G1 E17.28550 F1500 ; unretract
G1 X-0.300 Y-3.200 E17.35461 F4800
; Path: INFILL (1 moves)
G1 E15.85461 F1500 ; retract
G0 X-1.165 Y-3.200 F9000 ; travel to start
G1 E17.35461 F1500 ; unretract
G1 X-0.849 Y-2.651 E17.39452 F4800
; Path: INFILL (1 moves)
G1 E15.89452 F1500 ; retract
G0 X-0.532 Y-3.200 F9000 ; travel to start
G1 E17.39452 F1500 ; unretract
G1 X-0.849 Y-2.651 E17.43442 F4800
; Path: INFILL (1 moves)
G1 E15.93442 F1500 ; retract
G0 X-0.300 Y-3.800 F9000 ; travel to start
G1 E17.43442 F1500 ; unretract
G1 X0.300 Y-3.800 E17.47222 F4800
; Path: INFILL (1 moves)
G1 E15.97222 F1500 ; retract
G0 X-0.173 Y-3.800 F9000 ; travel to start
G1 E17.47222 F1500 ; unretract
G1 X0.173 Y-3.200 E17.51587 F4800
; Path: INFILL (1 moves)
G1 E16.01587 F1500 ; retract
G0 X0.173 Y-3.800 F9000 ; travel to start
G1 E17.51587 F1500 ; unretract
G1 X-0.173 Y-3.200 E17.55951 F4800
; Path: INFILL (1 moves)
G1 E16.05951 F1500 ; retract
G0 X0.849 Y-0.849 F9000 ; travel to start
G1 E17.55951 F1500 ; unretract
G1 X1.165 Y-0.300 E17.59942 F4800
; Path: INFILL (1 moves)
G1 E16.09942 F1500 ; retract
G0 X0.849 Y-0.849 F9000 ; travel to start
G1 E17.59942 F1500 ; unretract
