; Generated by OrcaSlicer Odin
; https://github.com/SoftFever/OrcaSlicer
;
; Total layers: 50
; Estimated print time: 2.3 minutes
; Filament used: 9.27 m
; Bed temperature: 60°C
; Extruder temperature: 200°C
; Filament diameter: 1.75 mm
;
; Start sequence
G21 ; set units to millimeters
G90 ; use absolute coordinates
M82 ; use absolute distances for extrusion
G92 E0 ; reset extruder position
G28 ; home all axes
M140 S60 ; set bed temperature
M104 S200 ; set extruder temperature
M190 S60 ; wait for bed temperature
M109 S200 ; wait for extruder temperature
G1 Z2.0 F3000 ; move Z to 2mm
G1 X10.1 Y20 Z0.28 F5000.0 ; move to start position
G1 X10.1 Y200.0 Z0.28 F1500.0 E15 ; draw 1st line
G1 X10.4 Y200.0 Z0.28 F5000.0 ; move to side a little
G1 X10.4 Y20 Z0.28 F1500.0 E30 ; draw 2nd line
G92 E0 ; reset extruder
;
; LAYER 0
; Z: -5.000
G1 Z-5.000 F300 ; move to layer height
; Path: PERIMETER_OUTER (3 moves)
G1 E-1.50000 F1500 ; retract
G0 X-5.000 Y-5.000 F9000 ; travel to start
G1 E0.00000 F1500 ; unretract
G1 X5.000 Y-5.000 E0.84000 F3000
G1 X5.000 Y5.000 E1.68000 F3000
G1 X-5.000 Y-5.000 E2.86794 F3000
; Path: PERIMETER_INNER (3 moves)
G1 E1.36794 F1500 ; retract
G0 X-4.034 Y-4.600 F9000 ; travel to start
G1 E2.86794 F1500 ; unretract
G1 X4.600 Y-4.600 E3.59322 F3600
G1 X4.600 Y4.034 E4.31850 F3600
G1 X-4.034 Y-4.600 E5.34421 F3600
; Path: PERIMETER_OUTER (3 moves)
G1 E3.84421 F1500 ; retract
G0 X-5.000 Y-5.000 F9000 ; travel to start
G1 E5.34421 F1500 ; unretract
G1 X5.000 Y5.000 E6.53215 F3000
G1 X-5.000 Y5.000 E7.37215 F3000
G1 X-5.000 Y-5.000 E8.21215 F3000
; Path: PERIMETER_INNER (3 moves)
G1 E6.71215 F1500 ; retract
G0 X-4.600 Y-4.034 F9000 ; travel to start
G1 E8.21215 F1500 ; unretract
G1 X4.034 Y4.600 E9.23785 F3600
G1 X-4.600 Y4.600 E9.96313 F3600
G1 X-4.600 Y-4.034 E10.68842 F3600
; Path: PERIMETER_OUTER (4 moves)
G1 E9.18842 F1500 ; retract
G0 X-5.000 Y-5.000 F9000 ; travel to start
G1 E10.68842 F1500 ; unretract
G1 X5.000 Y-5.000 E11.52842 F3000
G1 X5.000 Y5.000 E12.36842 F3000
G1 X-5.000 Y5.000 E13.20842 F3000
G1 X-5.000 Y-5.000 E14.04842 F3000
; Path: PERIMETER_INNER (4 moves)
G1 E12.54842 F1500 ; retract
G0 X-4.600 Y-4.600 F9000 ; travel to start
G1 E14.04842 F1500 ; unretract
G1 X4.600 Y-4.600 E14.82122 F3600
G1 X4.600 Y4.600 E15.59402 F3600
G1 X-4.600 Y4.600 E16.36682 F3600
G1 X-4.600 Y-4.600 E17.13962 F3600
; Path: INFILL (1 moves)
G1 E15.63962 F1500 ; retract
G0 X-1.069 Y-2.200 F9000 ; travel to start
G1 E17.13962 F1500 ; unretract
G1 X4.200 Y-2.200 E17.58218 F4800
; Path: INFILL (1 moves)
G1 E16.08218 F1500 ; retract
G0 X0.931 Y-0.200 F9000 ; travel to start
G1 E17.58218 F1500 ; unretract
G1 X4.200 Y-0.200 E17.85675 F4800
; Path: INFILL (1 moves)
G1 E16.35675 F1500 ; retract
G0 X2.931 Y1.800 F9000 ; travel to start
G1 E17.85675 F1500 ; unretract
G1 X4.200 Y1.800 E17.96331 F4800
; Path: INFILL (1 moves)
G1 E16.46331 F1500 ; retract
G0 X1.932 Y-4.200 F9000 ; travel to start
G1 E17.96331 F1500 ; unretract
G1 X4.200 Y-0.271 E18.34442 F4800
; Path: INFILL (1 moves)
G1 E16.84442 F1500 ; retract
G0 X-0.378 Y-4.200 F9000 ; travel to start
G1 E18.34442 F1500 ; unretract
G1 X3.298 Y2.166 E18.96192 F4800
; Path: INFILL (1 moves)
G1 E17.46192 F1500 ; retract
G0 X-2.687 Y-4.200 F9000 ; travel to start
G1 E18.96192 F1500 ; unretract
G1 X-2.166 Y-3.298 E19.04944 F4800
; Path: INFILL (1 moves)
G1 E17.54944 F1500 ; retract
G0 X4.200 Y-0.861 F9000 ; travel to start
G1 E19.04944 F1500 ; unretract
G1 X2.762 Y1.630 E19.29105 F4800
; Path: INFILL (1 moves)
G1 E17.79105 F1500 ; retract
G0 X3.819 Y-4.200 F9000 ; travel to start
G1 E19.29105 F1500 ; unretract
G1 X1.298 Y0.166 E19.71457 F4800
; Path: INFILL (1 moves)
G1 E18.21457 F1500 ; retract
G0 X1.509 Y-4.200 F9000 ; travel to start
G1 E19.71457 F1500 ; unretract
G1 X-0.166 Y-1.298 E19.99607 F4800
; Path: INFILL (1 moves)
G1 E18.49607 F1500 ; retract
G0 X-0.800 Y-4.200 F9000 ; travel to start
G1 E19.99607 F1500 ; unretract
G1 X-1.630 Y-2.762 E20.13556 F4800
; Path: INFILL (1 moves)
G1 E18.63556 F1500 ; retract
G0 X-4.200 Y-1.069 F9000 ; travel to start
G1 E20.13556 F1500 ; unretract
G1 X-2.200 Y-1.069 E20.30356 F4800
; Path: INFILL (1 moves)
G1 E18.80356 F1500 ; retract
G0 X-4.200 Y0.931 F9000 ; travel to start
G1 E20.30356 F1500 ; unretract
G1 X-0.200 Y0.931 E20.63956 F4800
; Path: INFILL (1 moves)
G1 E19.13956 F1500 ; retract
G0 X-4.200 Y2.931 F9000 ; travel to start
G1 E20.63956 F1500 ; unretract
G1 X1.800 Y2.931 E21.14356 F4800
; Path: INFILL (1 moves)
G1 E19.64356 F1500 ; retract
G0 X2.166 Y3.298 F9000 ; travel to start
G1 E21.14356 F1500 ; unretract
G1 X2.687 Y4.200 E21.23108 F4800
; Path: INFILL (1 moves)
G1 E19.73108 F1500 ; retract
G0 X-3.298 Y-2.166 F9000 ; travel to start
G1 E21.23108 F1500 ; unretract
G1 X0.378 Y4.200 E21.84858 F4800
; Path: INFILL (1 moves)
G1 E20.34858 F1500 ; retract
G0 X-4.200 Y0.271 F9000 ; travel to start
G1 E21.84858 F1500 ; unretract
G1 X-1.932 Y4.200 E22.22969 F4800
; Path: INFILL (1 moves)
G1 E20.72969 F1500 ; retract
G0 X1.630 Y2.762 F9000 ; travel to start
G1 E22.22969 F1500 ; unretract
G1 X0.800 Y4.200 E22.36918 F4800
; Path: INFILL (1 moves)
G1 E20.86918 F1500 ; retract
G0 X0.166 Y1.298 F9000 ; travel to start
G1 E22.36918 F1500 ; unretract
G1 X-1.509 Y4.200 E22.65069 F4800
; Path: INFILL (1 moves)
G1 E21.15069 F1500 ; retract
G0 X-1.298 Y-0.166 F9000 ; travel to start
G1 E22.65069 F1500 ; unretract
G1 X-3.819 Y4.200 E23.07420 F4800
; Path: INFILL (1 moves)
G1 E21.57420 F1500 ; retract
G0 X-2.762 Y-1.630 F9000 ; travel to start
G1 E23.07420 F1500 ; unretract
G1 X-4.200 Y0.861 E23.31582 F4800
; Path: INFILL (1 moves)
G1 E21.81582 F1500 ; retract
G0 X-4.200 Y-4.200 F9000 ; travel to start
G1 E23.31582 F1500 ; unretract
G1 X4.200 Y-4.200 E24.02142 F4800
; Path: INFILL (1 moves)
G1 E22.52142 F1500 ; retract
G0 X-4.200 Y-2.200 F9000 ; travel to start
G1 E24.02142 F1500 ; unretract
G1 X4.200 Y-2.200 E24.72702 F4800
; Path: INFILL (1 moves)
G1 E23.22702 F1500 ; retract
G0 X-4.200 Y-0.200 F9000 ; travel to start
G1 E24.72702 F1500 ; unretract
G1 X4.200 Y-0.200 E25.43262 F4800
; Path: INFILL (1 moves)
G1 E23.93262 F1500 ; retract
G0 X-4.200 Y1.800 F9000 ; travel to start
G1 E25.43262 F1500 ; unretract
G1 X4.200 Y1.800 E26.13822 F4800
; Path: INFILL (1 moves)
G1 E24.63822 F1500 ; retract
G0 X-4.200 Y3.800 F9000 ; travel to start
G1 E26.13822 F1500 ; unretract
G1 X4.200 Y3.800 E26.84382 F4800
; Path: INFILL (1 moves)
G1 E25.34382 F1500 ; retract
G0 X3.349 Y-4.200 F9000 ; travel to start
G1 E26.84382 F1500 ; unretract
G1 X4.200 Y-2.725 E26.98685 F4800
; Path: INFILL (1 moves)
G1 E25.48685 F1500 ; retract
G0 X1.039 Y-4.200 F9000 ; travel to start
G1 E26.98685 F1500 ; unretract
G1 X4.200 Y1.275 E27.51786 F4800
; Path: INFILL (1 moves)
G1 E26.01786 F1500 ; retract
G0 X-1.270 Y-4.200 F9000 ; travel to start
G1 E27.51786 F1500 ; unretract
G1 X3.580 Y4.200 E28.33261 F4800
; Path: INFILL (1 moves)
G1 E26.83261 F1500 ; retract
G0 X-3.580 Y-4.200 F9000 ; travel to start
G1 E28.33261 F1500 ; unretract
G1 X1.270 Y4.200 E29.14737 F4800
; Path: INFILL (1 moves)
G1 E27.64737 F1500 ; retract
G0 X-4.200 Y-1.275 F9000 ; travel to start
G1 E29.14737 F1500 ; unretract
G1 X-1.039 Y4.200 E29.67838 F4800
; Path: INFILL (1 moves)
G1 E28.17838 F1500 ; retract
G0 X-4.200 Y2.725 F9000 ; travel to start
G1 E29.67838 F1500 ; unretract
G1 X-3.349 Y4.200 E29.82141 F4800
; Path: INFILL (1 moves)
G1 E28.32141 F1500 ; retract
G0 X4.200 Y2.725 F9000 ; travel to start
G1 E29.82141 F1500 ; unretract
G1 X3.349 Y4.200 E29.96444 F4800
; Path: INFILL (1 moves)
G1 E28.46444 F1500 ; retract
G0 X4.200 Y-1.275 F9000 ; travel to start
G1 E29.96444 F1500 ; unretract
G1 X1.039 Y4.200 E30.49545 F4800
; Path: INFILL (1 moves)
G1 E28.99545 F1500 ; retract
G0 X3.580 Y-4.200 F9000 ; travel to start
G1 E30.49545 F1500 ; unretract
G1 X-1.270 Y4.200 E31.31021 F4800
; Path: INFILL (1 moves)
G1 E29.81021 F1500 ; retract
G0 X1.270 Y-4.200 F9000 ; travel to start
G1 E31.31021 F1500 ; unretract
G1 X-3.580 Y4.200 E32.12496 F4800
; Path: INFILL (1 moves)
G1 E30.62496 F1500 ; retract
G0 X-1.039 Y-4.200 F9000 ; travel to start
G1 E32.12496 F1500 ; unretract
G1 X-4.200 Y1.275 E32.65597 F4800
; Path: INFILL (1 moves)
G1 E31.15597 F1500 ; retract
G0 X-3.349 Y-4.200 F9000 ; travel to start
G1 E32.65597 F1500 ; unretract
G1 X-4.200 Y-2.725 E32.79900 F4800
;
; LAYER 1
; Z: -4.800
G1 Z-4.800 F300 ; move to layer height
; Path: PERIMETER_OUTER (8 moves)
G1 E31.29900 F1500 ; retract
G0 X-5.000 Y-5.000 F9000 ; travel to start
G1 E32.79900 F1500 ; unretract
G1 X-4.800 Y-5.000 E32.81580 F3000
G1 X5.000 Y-5.000 E33.63900 F3000
G1 X5.000 Y-4.800 E33.65580 F3000
G1 X5.000 Y5.000 E34.47900 F3000
G1 X4.800 Y5.000 E34.49580 F3000
G1 X-5.000 Y5.000 E35.31900 F3000
G1 X-5.000 Y-4.800 E36.14220 F3000
G1 X-5.000 Y-5.000 E36.15900 F3000
; Path: PERIMETER_INNER (8 moves)
G1 E34.65900 F1500 ; retract
G0 X-4.600 Y-4.600 F9000 ; travel to start
G1 E36.15900 F1500 ; unretract
G1 X-4.800 Y-4.600 E36.17580 F3600
G1 X4.600 Y-4.600 E36.96540 F3600
G1 X4.600 Y-4.800 E36.98220 F3600
G1 X4.600 Y4.600 E37.77180 F3600
G1 X4.800 Y4.600 E37.78860 F3600
G1 X-4.600 Y4.600 E38.57820 F3600
G1 X-4.600 Y-4.800 E39.36780 F3600
G1 X-4.600 Y-4.600 E39.38460 F3600
; Path: INFILL (1 moves)
G1 E37.88460 F1500 ; retract
G0 X-4.200 Y-2.800 F9000 ; travel to start
G1 E39.38460 F1500 ; unretract
G1 X4.200 Y-2.800 E40.09020 F4800
; Path: INFILL (1 moves)
G1 E38.59020 F1500 ; retract
G0 X-4.200 Y-0.800 F9000 ; travel to start
G1 E40.09020 F1500 ; unretract
G1 X4.200 Y-0.800 E40.79580 F4800
; Path: INFILL (1 moves)
G1 E39.29580 F1500 ; retract
G0 X-4.200 Y1.200 F9000 ; travel to start
G1 E40.79580 F1500 ; unretract
G1 X4.200 Y1.200 E41.50140 F4800
; Path: INFILL (1 moves)
G1 E40.00140 F1500 ; retract
G0 X-4.200 Y3.200 F9000 ; travel to start
G1 E41.50140 F1500 ; unretract
G1 X4.200 Y3.200 E42.20700 F4800
; Path: INFILL (1 moves)
G1 E40.70700 F1500 ; retract
G0 X2.367 Y-4.200 F9000 ; travel to start
G1 E42.20700 F1500 ; unretract
G1 X4.200 Y-1.025 E42.51492 F4800
; Path: INFILL (1 moves)
G1 E41.01492 F1500 ; retract
G0 X0.058 Y-4.200 F9000 ; travel to start
G1 E42.51492 F1500 ; unretract
G1 X4.200 Y2.975 E43.21082 F4800
; Path: INFILL (1 moves)
G1 E41.71082 F1500 ; retract
G0 X-2.252 Y-4.200 F9000 ; travel to start
G1 E43.21082 F1500 ; unretract
G1 X2.598 Y4.200 E44.02558 F4800
; Path: INFILL (1 moves)
G1 E42.52558 F1500 ; retract
G0 X-4.200 Y-3.575 F9000 ; travel to start
G1 E44.02558 F1500 ; unretract
G1 X0.289 Y4.200 E44.77968 F4800
; Path: INFILL (1 moves)
G1 E43.27968 F1500 ; retract
G0 X-4.200 Y0.425 F9000 ; travel to start
G1 E44.77968 F1500 ; unretract
G1 X-2.021 Y4.200 E45.14580 F4800
; Path: INFILL (1 moves)
G1 E43.64580 F1500 ; retract
G0 X4.200 Y0.425 F9000 ; travel to start
G1 E45.14580 F1500 ; unretract
G1 X2.021 Y4.200 E45.51191 F4800
; Path: INFILL (1 moves)
G1 E44.01191 F1500 ; retract
G0 X4.200 Y-3.575 F9000 ; travel to start
G1 E45.51191 F1500 ; unretract
G1 X-0.289 Y4.200 E46.26601 F4800
; Path: INFILL (1 moves)
G1 E44.76601 F1500 ; retract
G0 X2.252 Y-4.200 F9000 ; travel to start
G1 E46.26601 F1500 ; unretract
G1 X-2.598 Y4.200 E47.08077 F4800
; Path: INFILL (1 moves)
G1 E45.58077 F1500 ; retract
G0 X-0.058 Y-4.200 F9000 ; travel to start
G1 E47.08077 F1500 ; unretract
G1 X-4.200 Y2.975 E47.77667 F4800
; Path: INFILL (1 moves)
G1 E46.27667 F1500 ; retract
G0 X-2.367 Y-4.200 F9000 ; travel to start
G1 E47.77667 F1500 ; unretract
G1 X-4.200 Y-1.025 E48.08459 F4800
;
; LAYER 2
; Z: -4.600
G1 Z-4.600 F300 ; move to layer height
; Path: PERIMETER_OUTER (8 moves)
G1 E46.58459 F1500 ; retract
G0 X-5.000 Y-5.000 F9000 ; travel to start
G1 E48.08459 F1500 ; unretract
G1 X-4.600 Y-5.000 E48.11819 F3000
G1 X5.000 Y-5.000 E48.92459 F3000
G1 X5.000 Y-4.600 E48.95819 F3000
G1 X5.000 Y5.000 E49.76459 F3000
G1 X4.600 Y5.000 E49.79819 F3000
G1 X-5.000 Y5.000 E50.60459 F3000
G1 X-5.000 Y-4.600 E51.41099 F3000
G1 X-5.000 Y-5.000 E51.44459 F3000
; Path: PERIMETER_INNER (8 moves)
G1 E49.94459 F1500 ; retract
G0 X-4.600 Y-4.600 F9000 ; travel to start
G1 E51.44459 F1500 ; unretract
G1 X-4.600 Y-4.600 E51.44459 F3600
G1 X4.600 Y-4.600 E52.21739 F3600
G1 X4.600 Y-4.600 E52.21739 F3600
G1 X4.600 Y4.600 E52.99019 F3600
G1 X4.600 Y4.600 E52.99019 F3600
G1 X-4.600 Y4.600 E53.76299 F3600
G1 X-4.600 Y-4.600 E54.53579 F3600
G1 X-4.600 Y-4.600 E54.53579 F3600
; Path: INFILL (1 moves)
G1 E53.03579 F1500 ; retract
G0 X-4.200 Y-2.600 F9000 ; travel to start
G1 E54.53579 F1500 ; unretract
G1 X4.200 Y-2.600 E55.24139 F4800
; Path: INFILL (1 moves)
G1 E53.74139 F1500 ; retract
G0 X-4.200 Y-0.600 F9000 ; travel to start
G1 E55.24139 F1500 ; unretract
G1 X4.200 Y-0.600 E55.94699 F4800
; Path: INFILL (1 moves)
G1 E54.44699 F1500 ; retract
G0 X-4.200 Y1.400 F9000 ; travel to start
G1 E55.94699 F1500 ; unretract
G1 X4.200 Y1.400 E56.65259 F4800
; Path: INFILL (1 moves)
G1 E55.15259 F1500 ; retract
G0 X-4.200 Y3.400 F9000 ; travel to start
G1 E56.65259 F1500 ; unretract
G1 X4.200 Y3.400 E57.35819 F4800
; Path: INFILL (1 moves)
G1 E55.85819 F1500 ; retract
G0 X2.309 Y-4.200 F9000 ; travel to start
G1 E57.35819 F1500 ; unretract
G1 X4.200 Y-0.925 E57.67581 F4800
; Path: INFILL (1 moves)
G1 E56.17581 F1500 ; retract
G0 X-0.000 Y-4.200 F9000 ; travel to start
G1 E57.67581 F1500 ; unretract
G1 X4.200 Y3.075 E58.38141 F4800
; Path: INFILL (1 moves)
G1 E56.88141 F1500 ; retract
G0 X-2.309 Y-4.200 F9000 ; travel to start
G1 E58.38141 F1500 ; unretract
G1 X2.540 Y4.200 E59.19617 F4800
; Path: INFILL (1 moves)
G1 E57.69617 F1500 ; retract
G0 X-4.200 Y-3.475 F9000 ; travel to start
G1 E59.19617 F1500 ; unretract
G1 X0.231 Y4.200 E59.94057 F4800
; Path: INFILL (1 moves)
G1 E58.44057 F1500 ; retract
G0 X-4.200 Y0.525 F9000 ; travel to start
G1 E59.94057 F1500 ; unretract
G1 X-2.078 Y4.200 E60.29699 F4800
; Path: INFILL (1 moves)
G1 E58.79699 F1500 ; retract
G0 X4.200 Y0.525 F9000 ; travel to start
G1 E60.29699 F1500 ; unretract
G1 X2.078 Y4.200 E60.65340 F4800
; Path: INFILL (1 moves)
G1 E59.15340 F1500 ; retract
G0 X4.200 Y-3.475 F9000 ; travel to start
G1 E60.65340 F1500 ; unretract
G1 X-0.231 Y4.200 E61.39780 F4800
; Path: INFILL (1 moves)
G1 E59.89780 F1500 ; retract
G0 X2.309 Y-4.200 F9000 ; travel to start
G1 E61.39780 F1500 ; unretract
G1 X-2.540 Y4.200 E62.21256 F4800
; Path: INFILL (1 moves)
G1 E60.71256 F1500 ; retract
G0 X0.000 Y-4.200 F9000 ; travel to start
G1 E62.21256 F1500 ; unretract
G1 X-4.200 Y3.075 E62.91816 F4800
; Path: INFILL (1 moves)
G1 E61.41816 F1500 ; retract
G0 X-2.309 Y-4.200 F9000 ; travel to start
G1 E62.91816 F1500 ; unretract
G1 X-4.200 Y-0.925 E63.23578 F4800
;
; LAYER 3
; Z: -4.400
G1 Z-4.400 F300 ; move to layer height
; Path: PERIMETER_OUTER (8 moves)
G1 E61.73578 F1500 ; retract
G0 X-5.000 Y-5.000 F9000 ; travel to start
G1 E63.23578 F1500 ; unretract
G1 X-4.400 Y-5.000 E63.28618 F3000
G1 X5.000 Y-5.000 E64.07578 F3000
G1 X5.000 Y-4.400 E64.12618 F3000
G1 X5.000 Y5.000 E64.91578 F3000
G1 X4.400 Y5.000 E64.96618 F3000
G1 X-5.000 Y5.000 E65.75578 F3000
G1 X-5.000 Y-4.400 E66.54538 F3000
G1 X-5.000 Y-5.000 E66.59578 F3000
; Path: PERIMETER_INNER (8 moves)
G1 E65.09578 F1500 ; retract
G0 X-4.600 Y-4.600 F9000 ; travel to start
G1 E66.59578 F1500 ; unretract
G1 X-4.400 Y-4.600 E66.61258 F3600
G1 X4.600 Y-4.600 E67.36858 F3600
G1 X4.600 Y-4.400 E67.38538 F3600
G1 X4.600 Y4.600 E68.14138 F3600
G1 X4.400 Y4.600 E68.15818 F3600
G1 X-4.600 Y4.600 E68.91418 F3600
G1 X-4.600 Y-4.400 E69.67018 F3600
G1 X-4.600 Y-4.600 E69.68698 F3600
; Path: INFILL (1 moves)
G1 E68.18698 F1500 ; retract
G0 X-4.200 Y-2.400 F9000 ; travel to start
G1 E69.68698 F1500 ; unretract
G1 X4.200 Y-2.400 E70.39258 F4800
; Path: INFILL (1 moves)
G1 E68.89258 F1500 ; retract
G0 X-4.200 Y-0.400 F9000 ; travel to start
G1 E70.39258 F1500 ; unretract
G1 X4.200 Y-0.400 E71.09818 F4800
; Path: INFILL (1 moves)
G1 E69.59818 F1500 ; retract
G0 X-4.200 Y1.600 F9000 ; travel to start
G1 E71.09818 F1500 ; unretract
G1 X4.200 Y1.600 E71.80378 F4800
; Path: INFILL (1 moves)
