; Generated by OrcaSlicer Odin
; https://github.com/SoftFever/OrcaSlicer
;
; Total layers: 50
; Estimated print time: 1.6 minutes
; Filament used: 5.76 m
; Bed temperature: 60°C
; Extruder temperature: 200°C
; Filament diameter: 1.75 mm
;
; Start sequence
G21 ; set units to millimeters
G90 ; use absolute coordinates
M82 ; use absolute distances for extrusion
G92 E0 ; reset extruder position
G28 ; home all axes
M140 S60 ; set bed temperature
M104 S200 ; set extruder temperature
M190 S60 ; wait for bed temperature
M109 S200 ; wait for extruder temperature
G1 Z2.0 F3000 ; move Z to 2mm
G1 X10.1 Y20 Z0.28 F5000.0 ; move to start position
G1 X10.1 Y200.0 Z0.28 F1500.0 E15 ; draw 1st line
G1 X10.4 Y200.0 Z0.28 F5000.0 ; move to side a little
G1 X10.4 Y20 Z0.28 F1500.0 E30 ; draw 2nd line
G92 E0 ; reset extruder
;
; LAYER 0
; Z: -5.000
G1 Z-5.000 F300 ; move to layer height
; Path: PERIMETER_OUTER (3 moves)
G1 E-1.50000 F1500 ; retract
G0 X-5.000 Y-5.000 F9000 ; travel to start
G1 E0.00000 F1500 ; unretract
G1 X5.000 Y-5.000 E0.84000 F3000
G1 X5.000 Y5.000 E1.68000 F3000
G1 X-5.000 Y-5.000 E2.86794 F3000
; Path: PERIMETER_INNER (3 moves)
G1 E1.36794 F1500 ; retract
G0 X-4.034 Y-4.600 F9000 ; travel to start
G1 E2.86794 F1500 ; unretract
G1 X4.600 Y-4.600 E3.59322 F3600
G1 X4.600 Y4.034 E4.31850 F3600
G1 X-4.034 Y-4.600 E5.34421 F3600
; Path: PERIMETER_OUTER (3 moves)
G1 E3.84421 F1500 ; retract
G0 X-5.000 Y-5.000 F9000 ; travel to start
G1 E5.34421 F1500 ; unretract
G1 X5.000 Y5.000 E6.53215 F3000
G1 X-5.000 Y5.000 E7.37215 F3000
G1 X-5.000 Y-5.000 E8.21215 F3000
; Path: PERIMETER_INNER (3 moves)
G1 E6.71215 F1500 ; retract
G0 X-4.600 Y-4.034 F9000 ; travel to start
G1 E8.21215 F1500 ; unretract
G1 X4.034 Y4.600 E9.23785 F3600
G1 X-4.600 Y4.600 E9.96313 F3600
G1 X-4.600 Y-4.034 E10.68842 F3600
; Path: PERIMETER_OUTER (4 moves)
G1 E9.18842 F1500 ; retract
G0 X-5.000 Y-5.000 F9000 ; travel to start
G1 E10.68842 F1500 ; unretract
G1 X5.000 Y-5.000 E11.52842 F3000
G1 X5.000 Y5.000 E12.36842 F3000
G1 X-5.000 Y5.000 E13.20842 F3000
G1 X-5.000 Y-5.000 E14.04842 F3000
; Path: PERIMETER_INNER (4 moves)
G1 E12.54842 F1500 ; retract
G0 X-4.600 Y-4.600 F9000 ; travel to start
G1 E14.04842 F1500 ; unretract
G1 X4.600 Y-4.600 E14.82122 F3600
G1 X4.600 Y4.600 E15.59402 F3600
G1 X-4.600 Y4.600 E16.36682 F3600
G1 X-4.600 Y-4.600 E17.13962 F3600
; Path: INFILL (1 moves)
G1 E15.63962 F1500 ; retract
G0 X-1.069 Y-2.200 F9000 ; travel to start
G1 E17.13962 F1500 ; unretract
G1 X4.200 Y-2.200 E17.58218 F4800
; Path: INFILL (1 moves)
G1 E16.08218 F1500 ; retract
G0 X0.931 Y-0.200 F9000 ; travel to start
G1 E17.58218 F1500 ; unretract
G1 X4.200 Y-0.200 E17.85675 F4800
; Path: INFILL (1 moves)
G1 E16.35675 F1500 ; retract
G0 X2.931 Y1.800 F9000 ; travel to start
G1 E17.85675 F1500 ; unretract
G1 X4.200 Y1.800 E17.96331 F4800
; Path: INFILL (1 moves)
G1 E16.46331 F1500 ; retract
G0 X-4.200 Y-1.069 F9000 ; travel to start
G1 E17.96331 F1500 ; unretract
G1 X-2.200 Y-1.069 E18.13131 F4800
; Path: INFILL (1 moves)
G1 E16.63131 F1500 ; retract
G0 X-4.200 Y0.931 F9000 ; travel to start
G1 E18.13131 F1500 ; unretract
G1 X-0.200 Y0.931 E18.46731 F4800
; Path: INFILL (1 moves)
G1 E16.96731 F1500 ; retract
G0 X-4.200 Y2.931 F9000 ; travel to start
G1 E18.46731 F1500 ; unretract
G1 X1.800 Y2.931 E18.97131 F4800
; Path: INFILL (1 moves)
G1 E17.47131 F1500 ; retract
G0 X-4.200 Y-4.200 F9000 ; travel to start
G1 E18.97131 F1500 ; unretract
G1 X4.200 Y-4.200 E19.67691 F4800
; Path: INFILL (1 moves)
G1 E18.17691 F1500 ; retract
G0 X-4.200 Y-2.200 F9000 ; travel to start
G1 E19.67691 F1500 ; unretract
G1 X4.200 Y-2.200 E20.38251 F4800
; Path: INFILL (1 moves)
G1 E18.88251 F1500 ; retract
G0 X-4.200 Y-0.200 F9000 ; travel to start
G1 E20.38251 F1500 ; unretract
G1 X4.200 Y-0.200 E21.08811 F4800
; Path: INFILL (1 moves)
G1 E19.58811 F1500 ; retract
G0 X-4.200 Y1.800 F9000 ; travel to start
G1 E21.08811 F1500 ; unretract
G1 X4.200 Y1.800 E21.79371 F4800
; Path: INFILL (1 moves)
G1 E20.29371 F1500 ; retract
G0 X-4.200 Y3.800 F9000 ; travel to start
G1 E21.79371 F1500 ; unretract
G1 X4.200 Y3.800 E22.49931 F4800
;
; LAYER 1
; Z: -4.800
G1 Z-4.800 F300 ; move to layer height
; Path: PERIMETER_OUTER (8 moves)
G1 E20.99931 F1500 ; retract
G0 X-5.000 Y-5.000 F9000 ; travel to start
G1 E22.49931 F1500 ; unretract
G1 X-4.800 Y-5.000 E22.51611 F3000
G1 X5.000 Y-5.000 E23.33931 F3000
G1 X5.000 Y-4.800 E23.35611 F3000
G1 X5.000 Y5.000 E24.17931 F3000
G1 X4.800 Y5.000 E24.19611 F3000
G1 X-5.000 Y5.000 E25.01931 F3000
G1 X-5.000 Y-4.800 E25.84251 F3000
G1 X-5.000 Y-5.000 E25.85931 F3000
; Path: PERIMETER_INNER (8 moves)
G1 E24.35931 F1500 ; retract
G0 X-4.600 Y-4.600 F9000 ; travel to start
G1 E25.85931 F1500 ; unretract
G1 X-4.800 Y-4.600 E25.87611 F3600
G1 X4.600 Y-4.600 E26.66571 F3600
G1 X4.600 Y-4.800 E26.68251 F3600
G1 X4.600 Y4.600 E27.47211 F3600
G1 X4.800 Y4.600 E27.48891 F3600
G1 X-4.600 Y4.600 E28.27851 F3600
G1 X-4.600 Y-4.800 E29.06811 F3600
G1 X-4.600 Y-4.600 E29.08491 F3600
; Path: INFILL (1 moves)
G1 E27.58491 F1500 ; retract
G0 X-2.800 Y-4.200 F9000 ; travel to start
G1 E29.08491 F1500 ; unretract
G1 X-2.800 Y4.200 E29.79051 F4800
; Path: INFILL (1 moves)
G1 E28.29051 F1500 ; retract
G0 X-0.800 Y-4.200 F9000 ; travel to start
G1 E29.79051 F1500 ; unretract
G1 X-0.800 Y4.200 E30.49611 F4800
; Path: INFILL (1 moves)
G1 E28.99611 F1500 ; retract
G0 X1.200 Y-4.200 F9000 ; travel to start
G1 E30.49611 F1500 ; unretract
G1 X1.200 Y4.200 E31.20171 F4800
; Path: INFILL (1 moves)
G1 E29.70171 F1500 ; retract
G0 X3.200 Y-4.200 F9000 ; travel to start
G1 E31.20171 F1500 ; unretract
G1 X3.200 Y4.200 E31.90731 F4800
;
; LAYER 2
; Z: -4.600
G1 Z-4.600 F300 ; move to layer height
; Path: PERIMETER_OUTER (8 moves)
G1 E30.40731 F1500 ; retract
G0 X-5.000 Y-5.000 F9000 ; travel to start
G1 E31.90731 F1500 ; unretract
G1 X-4.600 Y-5.000 E31.94091 F3000
G1 X5.000 Y-5.000 E32.74731 F3000
G1 X5.000 Y-4.600 E32.78091 F3000
G1 X5.000 Y5.000 E33.58731 F3000
G1 X4.600 Y5.000 E33.62091 F3000
G1 X-5.000 Y5.000 E34.42731 F3000
G1 X-5.000 Y-4.600 E35.23371 F3000
G1 X-5.000 Y-5.000 E35.26731 F3000
; Path: PERIMETER_INNER (8 moves)
G1 E33.76731 F1500 ; retract
G0 X-4.600 Y-4.600 F9000 ; travel to start
G1 E35.26731 F1500 ; unretract
G1 X-4.600 Y-4.600 E35.26731 F3600
G1 X4.600 Y-4.600 E36.04011 F3600
G1 X4.600 Y-4.600 E36.04011 F3600
G1 X4.600 Y4.600 E36.81291 F3600
G1 X4.600 Y4.600 E36.81291 F3600
G1 X-4.600 Y4.600 E37.58571 F3600
G1 X-4.600 Y-4.600 E38.35851 F3600
G1 X-4.600 Y-4.600 E38.35851 F3600
; Path: INFILL (1 moves)
G1 E36.85851 F1500 ; retract
G0 X-4.200 Y-2.600 F9000 ; travel to start
G1 E38.35851 F1500 ; unretract
G1 X4.200 Y-2.600 E39.06411 F4800
; Path: INFILL (1 moves)
G1 E37.56411 F1500 ; retract
G0 X-4.200 Y-0.600 F9000 ; travel to start
G1 E39.06411 F1500 ; unretract
G1 X4.200 Y-0.600 E39.76971 F4800
; Path: INFILL (1 moves)
G1 E38.26971 F1500 ; retract
G0 X-4.200 Y1.400 F9000 ; travel to start
G1 E39.76971 F1500 ; unretract
G1 X4.200 Y1.400 E40.47531 F4800
; Path: INFILL (1 moves)
G1 E38.97531 F1500 ; retract
G0 X-4.200 Y3.400 F9000 ; travel to start
G1 E40.47531 F1500 ; unretract
G1 X4.200 Y3.400 E41.18092 F4800
;
; LAYER 3
; Z: -4.400
G1 Z-4.400 F300 ; move to layer height
; Path: PERIMETER_OUTER (8 moves)
G1 E39.68092 F1500 ; retract
G0 X-5.000 Y-5.000 F9000 ; travel to start
G1 E41.18092 F1500 ; unretract
G1 X-4.400 Y-5.000 E41.23132 F3000
G1 X5.000 Y-5.000 E42.02092 F3000
G1 X5.000 Y-4.400 E42.07132 F3000
G1 X5.000 Y5.000 E42.86092 F3000
G1 X4.400 Y5.000 E42.91132 F3000
G1 X-5.000 Y5.000 E43.70091 F3000
G1 X-5.000 Y-4.400 E44.49051 F3000
G1 X-5.000 Y-5.000 E44.54091 F3000
; Path: PERIMETER_INNER (8 moves)
G1 E43.04091 F1500 ; retract
G0 X-4.600 Y-4.600 F9000 ; travel to start
G1 E44.54091 F1500 ; unretract
G1 X-4.400 Y-4.600 E44.55772 F3600
G1 X4.600 Y-4.600 E45.31372 F3600
G1 X4.600 Y-4.400 E45.33052 F3600
G1 X4.600 Y4.600 E46.08652 F3600
G1 X4.400 Y4.600 E46.10332 F3600
G1 X-4.600 Y4.600 E46.85932 F3600
G1 X-4.600 Y-4.400 E47.61532 F3600
G1 X-4.600 Y-4.600 E47.63212 F3600
; Path: INFILL (1 moves)
G1 E46.13212 F1500 ; retract
G0 X-2.400 Y-4.200 F9000 ; travel to start
G1 E47.63212 F1500 ; unretract
G1 X-2.400 Y4.200 E48.33772 F4800
; Path: INFILL (1 moves)
G1 E46.83772 F1500 ; retract
G0 X-0.400 Y-4.200 F9000 ; travel to start
G1 E48.33772 F1500 ; unretract
G1 X-0.400 Y4.200 E49.04332 F4800
; Path: INFILL (1 moves)
G1 E47.54332 F1500 ; retract
G0 X1.600 Y-4.200 F9000 ; travel to start
G1 E49.04332 F1500 ; unretract
G1 X1.600 Y4.200 E49.74892 F4800
; Path: INFILL (1 moves)
G1 E48.24892 F1500 ; retract
G0 X3.600 Y-4.200 F9000 ; travel to start
G1 E49.74892 F1500 ; unretract
G1 X3.600 Y4.200 E50.45452 F4800
;
; LAYER 4
; Z: -4.200
G1 Z-4.200 F300 ; move to layer height
; Path: PERIMETER_OUTER (8 moves)
G1 E48.95452 F1500 ; retract
G0 X-5.000 Y-5.000 F9000 ; travel to start
G1 E50.45452 F1500 ; unretract
G1 X-4.200 Y-5.000 E50.52172 F3000
G1 X5.000 Y-5.000 E51.29452 F3000
G1 X5.000 Y-4.200 E51.36172 F3000
G1 X5.000 Y5.000 E52.13452 F3000
G1 X4.200 Y5.000 E52.20172 F3000
G1 X-5.000 Y5.000 E52.97452 F3000
G1 X-5.000 Y-4.200 E53.74732 F3000
G1 X-5.000 Y-5.000 E53.81452 F3000
; Path: PERIMETER_INNER (8 moves)
G1 E52.31452 F1500 ; retract
G0 X-4.600 Y-4.600 F9000 ; travel to start
G1 E53.81452 F1500 ; unretract
G1 X-4.200 Y-4.600 E53.84812 F3600
G1 X4.600 Y-4.600 E54.58732 F3600
G1 X4.600 Y-4.200 E54.62092 F3600
G1 X4.600 Y4.600 E55.36012 F3600
G1 X4.200 Y4.600 E55.39372 F3600
G1 X-4.600 Y4.600 E56.13292 F3600
G1 X-4.600 Y-4.200 E56.87212 F3600
G1 X-4.600 Y-4.600 E56.90572 F3600
; Path: INFILL (1 moves)
G1 E55.40572 F1500 ; retract
G0 X-4.200 Y-2.200 F9000 ; travel to start
G1 E56.90572 F1500 ; unretract
G1 X4.200 Y-2.200 E57.61132 F4800
; Path: INFILL (1 moves)
G1 E56.11132 F1500 ; retract
G0 X-4.200 Y-0.200 F9000 ; travel to start
G1 E57.61132 F1500 ; unretract
G1 X4.200 Y-0.200 E58.31692 F4800
; Path: INFILL (1 moves)
G1 E56.81692 F1500 ; retract
G0 X-4.200 Y1.800 F9000 ; travel to start
G1 E58.31692 F1500 ; unretract
G1 X4.200 Y1.800 E59.02252 F4800
; Path: INFILL (1 moves)
G1 E57.52252 F1500 ; retract
G0 X-4.200 Y3.800 F9000 ; travel to start
G1 E59.02252 F1500 ; unretract
G1 X4.200 Y3.800 E59.72812 F4800
;
; LAYER 5
; Z: -4.000
G1 Z-4.000 F300 ; move to layer height
; Path: PERIMETER_OUTER (8 moves)
G1 E58.22812 F1500 ; retract
G0 X-5.000 Y-5.000 F9000 ; travel to start
G1 E59.72812 F1500 ; unretract
G1 X-4.000 Y-5.000 E59.81212 F3000
G1 X5.000 Y-5.000 E60.56812 F3000
G1 X5.000 Y-4.000 E60.65212 F3000
G1 X5.000 Y5.000 E61.40812 F3000
G1 X4.000 Y5.000 E61.49212 F3000
G1 X-5.000 Y5.000 E62.24812 F3000
G1 X-5.000 Y-4.000 E63.00412 F3000
G1 X-5.000 Y-5.000 E63.08812 F3000
; Path: PERIMETER_INNER (8 moves)
G1 E61.58812 F1500 ; retract
G0 X-4.600 Y-4.600 F9000 ; travel to start
G1 E63.08812 F1500 ; unretract
G1 X-4.000 Y-4.600 E63.13852 F3600
G1 X4.600 Y-4.600 E63.86092 F3600
G1 X4.600 Y-4.000 E63.91132 F3600
G1 X4.600 Y4.600 E64.63372 F3600
G1 X4.000 Y4.600 E64.68412 F3600
G1 X-4.600 Y4.600 E65.40652 F3600
G1 X-4.600 Y-4.000 E66.12892 F3600
G1 X-4.600 Y-4.600 E66.17932 F3600
; Path: INFILL (1 moves)
G1 E64.67932 F1500 ; retract
G0 X-2.200 Y-4.200 F9000 ; travel to start
G1 E66.17932 F1500 ; unretract
G1 X-2.200 Y4.200 E66.88492 F4800
; Path: INFILL (1 moves)
G1 E65.38492 F1500 ; retract
G0 X-0.200 Y-4.200 F9000 ; travel to start
G1 E66.88492 F1500 ; unretract
G1 X-0.200 Y4.200 E67.59052 F4800
; Path: INFILL (1 moves)
G1 E66.09052 F1500 ; retract
G0 X1.800 Y-4.200 F9000 ; travel to start
G1 E67.59052 F1500 ; unretract
G1 X1.800 Y4.200 E68.29612 F4800
; Path: INFILL (1 moves)
G1 E66.79612 F1500 ; retract
G0 X3.800 Y-4.200 F9000 ; travel to start
G1 E68.29612 F1500 ; unretract
G1 X3.800 Y4.200 E69.00172 F4800
;
; LAYER 6
; Z: -3.800
G1 Z-3.800 F300 ; move to layer height
; Path: PERIMETER_OUTER (8 moves)
G1 E67.50172 F1500 ; retract
G0 X-5.000 Y-5.000 F9000 ; travel to start
G1 E69.00172 F1500 ; unretract
G1 X-3.800 Y-5.000 E69.10252 F3000
G1 X5.000 Y-5.000 E69.84172 F3000
G1 X5.000 Y-3.800 E69.94252 F3000
G1 X5.000 Y5.000 E70.68172 F3000
G1 X3.800 Y5.000 E70.78252 F3000
G1 X-5.000 Y5.000 E71.52172 F3000
G1 X-5.000 Y-3.800 E72.26092 F3000
G1 X-5.000 Y-5.000 E72.36172 F3000
; Path: PERIMETER_INNER (8 moves)
G1 E70.86172 F1500 ; retract
G0 X-4.600 Y-4.600 F9000 ; travel to start
G1 E72.36172 F1500 ; unretract
G1 X-3.800 Y-4.600 E72.42892 F3600
G1 X4.600 Y-4.600 E73.13452 F3600
G1 X4.600 Y-3.800 E73.20172 F3600
G1 X4.600 Y4.600 E73.90732 F3600
G1 X3.800 Y4.600 E73.97452 F3600
G1 X-4.600 Y4.600 E74.68012 F3600
G1 X-4.600 Y-3.800 E75.38572 F3600
G1 X-4.600 Y-4.600 E75.45292 F3600
; Path: INFILL (1 moves)
G1 E73.95292 F1500 ; retract
G0 X-4.200 Y-2.200 F9000 ; travel to start
G1 E75.45292 F1500 ; unretract
G1 X4.200 Y-2.200 E76.15852 F4800
; Path: INFILL (1 moves)
G1 E74.65852 F1500 ; retract
G0 X-4.200 Y-0.200 F9000 ; travel to start
G1 E76.15852 F1500 ; unretract
G1 X4.200 Y-0.200 E76.86412 F4800
; Path: INFILL (1 moves)
G1 E75.36412 F1500 ; retract
G0 X-4.200 Y1.800 F9000 ; travel to start
G1 E76.86412 F1500 ; unretract
G1 X4.200 Y1.800 E77.56972 F4800
; Path: INFILL (1 moves)
G1 E76.06972 F1500 ; retract
G0 X-4.200 Y3.800 F9000 ; travel to start
G1 E77.56972 F1500 ; unretract
G1 X4.200 Y3.800 E78.27532 F4800
;
; LAYER 7
; Z: -3.600
G1 Z-3.600 F300 ; move to layer height
; Path: PERIMETER_OUTER (8 moves)
G1 E76.77532 F1500 ; retract
G0 X-5.000 Y-5.000 F9000 ; travel to start
G1 E78.27532 F1500 ; unretract
G1 X-3.600 Y-5.000 E78.39292 F3000
G1 X5.000 Y-5.000 E79.11532 F3000
G1 X5.000 Y-3.600 E79.23292 F3000
G1 X5.000 Y5.000 E79.95532 F3000
G1 X3.600 Y5.000 E80.07292 F3000
G1 X-5.000 Y5.000 E80.79532 F3000
G1 X-5.000 Y-3.600 E81.51772 F3000
G1 X-5.000 Y-5.000 E81.63532 F3000
; Path: PERIMETER_INNER (8 moves)
G1 E80.13532 F1500 ; retract
G0 X-4.600 Y-4.600 F9000 ; travel to start
G1 E81.63532 F1500 ; unretract
G1 X-3.600 Y-4.600 E81.71932 F3600
G1 X4.600 Y-4.600 E82.40812 F3600
G1 X4.600 Y-3.600 E82.49212 F3600
G1 X4.600 Y4.600 E83.18092 F3600
G1 X3.600 Y4.600 E83.26492 F3600
G1 X-4.600 Y4.600 E83.95372 F3600
G1 X-4.600 Y-3.600 E84.64252 F3600
G1 X-4.600 Y-4.600 E84.72652 F3600
; Path: INFILL (1 moves)
G1 E83.22652 F1500 ; retract
G0 X-2.200 Y-4.200 F9000 ; travel to start
G1 E84.72652 F1500 ; unretract
G1 X-2.200 Y4.200 E85.43212 F4800
; Path: INFILL (1 moves)
G1 E83.93212 F1500 ; retract
G0 X-0.200 Y-4.200 F9000 ; travel to start
G1 E85.43212 F1500 ; unretract
G1 X-0.200 Y4.200 E86.13772 F4800
; Path: INFILL (1 moves)
G1 E84.63772 F1500 ; retract
G0 X1.800 Y-4.200 F9000 ; travel to start
G1 E86.13772 F1500 ; unretract
G1 X1.800 Y4.200 E86.84332 F4800
; Path: INFILL (1 moves)
G1 E85.34332 F1500 ; retract
G0 X3.800 Y-4.200 F9000 ; travel to start
G1 E86.84332 F1500 ; unretract
G1 X3.800 Y4.200 E87.54892 F4800
;
; LAYER 8
; Z: -3.400
G1 Z-3.400 F300 ; move to layer height
; Path: PERIMETER_OUTER (8 moves)
G1 E86.04892 F1500 ; retract
G0 X-5.000 Y-5.000 F9000 ; travel to start
G1 E87.54892 F1500 ; unretract
G1 X-3.400 Y-5.000 E87.68332 F3000
G1 X5.000 Y-5.000 E88.38892 F3000
G1 X5.000 Y-3.400 E88.52332 F3000
G1 X5.000 Y5.000 E89.22892 F3000
G1 X3.400 Y5.000 E89.36332 F3000
G1 X-5.000 Y5.000 E90.06892 F3000
G1 X-5.000 Y-3.400 E90.77452 F3000
G1 X-5.000 Y-5.000 E90.90892 F3000
; Path: PERIMETER_INNER (8 moves)
G1 E89.40892 F1500 ; retract
G0 X-4.600 Y-4.600 F9000 ; travel to start
G1 E90.90892 F1500 ; unretract
G1 X-3.400 Y-4.600 E91.00972 F3600
G1 X4.600 Y-4.600 E91.68172 F3600
G1 X4.600 Y-3.400 E91.78252 F3600
G1 X4.600 Y4.600 E92.45452 F3600
G1 X3.400 Y4.600 E92.55532 F3600
G1 X-4.600 Y4.600 E93.22732 F3600
G1 X-4.600 Y-3.400 E93.89932 F3600
G1 X-4.600 Y-4.600 E94.00012 F3600
; Path: INFILL (1 moves)
G1 E92.50012 F1500 ; retract
G0 X-4.200 Y-2.200 F9000 ; travel to start
G1 E94.00012 F1500 ; unretract
G1 X4.200 Y-2.200 E94.70572 F4800
; Path: INFILL (1 moves)
G1 E93.20572 F1500 ; retract
G0 X-4.200 Y-0.200 F9000 ; travel to start
G1 E94.70572 F1500 ; unretract
