; Generated by OrcaSlicer Odin
; https://github.com/SoftFever/OrcaSlicer
;
; Total layers: 50
; Estimated print time: 2.0 minutes
; Filament used: 7.57 m
; Bed temperature: 60°C
; Extruder temperature: 200°C
; Filament diameter: 1.75 mm
;
; Start sequence
G21 ; set units to millimeters
G90 ; use absolute coordinates
M82 ; use absolute distances for extrusion
G92 E0 ; reset extruder position
G28 ; home all axes
M140 S60 ; set bed temperature
M104 S200 ; set extruder temperature
M190 S60 ; wait for bed temperature
M109 S200 ; wait for extruder temperature
G1 Z2.0 F3000 ; move Z to 2mm
G1 X10.1 Y20 Z0.28 F5000.0 ; move to start position
G1 X10.1 Y200.0 Z0.28 F1500.0 E15 ; draw 1st line
G1 X10.4 Y200.0 Z0.28 F5000.0 ; move to side a little
G1 X10.4 Y20 Z0.28 F1500.0 E30 ; draw 2nd line
G92 E0 ; reset extruder
;
; LAYER 0
; Z: -5.000
G1 Z-5.000 F300 ; move to layer height
; Path: PERIMETER_OUTER (3 moves)
G1 E-1.50000 F1500 ; retract
G0 X-5.000 Y-5.000 F9000 ; travel to start
G1 E0.00000 F1500 ; unretract
G1 X5.000 Y-5.000 E0.84000 F3000
G1 X5.000 Y5.000 E1.68000 F3000
G1 X-5.000 Y-5.000 E2.86794 F3000
; Path: PERIMETER_INNER (3 moves)
G1 E1.36794 F1500 ; retract
G0 X-4.034 Y-4.600 F9000 ; travel to start
G1 E2.86794 F1500 ; unretract
G1 X4.600 Y-4.600 E3.59322 F3600
G1 X4.600 Y4.034 E4.31850 F3600
G1 X-4.034 Y-4.600 E5.34421 F3600
; Path: PERIMETER_OUTER (3 moves)
G1 E3.84421 F1500 ; retract
G0 X-5.000 Y-5.000 F9000 ; travel to start
G1 E5.34421 F1500 ; unretract
G1 X5.000 Y5.000 E6.53215 F3000
G1 X-5.000 Y5.000 E7.37215 F3000
G1 X-5.000 Y-5.000 E8.21215 F3000
; Path: PERIMETER_INNER (3 moves)
G1 E6.71215 F1500 ; retract
G0 X-4.600 Y-4.034 F9000 ; travel to start
G1 E8.21215 F1500 ; unretract
G1 X4.034 Y4.600 E9.23785 F3600
G1 X-4.600 Y4.600 E9.96313 F3600
G1 X-4.600 Y-4.034 E10.68842 F3600
; Path: PERIMETER_OUTER (4 moves)
G1 E9.18842 F1500 ; retract
G0 X-5.000 Y-5.000 F9000 ; travel to start
G1 E10.68842 F1500 ; unretract
G1 X5.000 Y-5.000 E11.52842 F3000
G1 X5.000 Y5.000 E12.36842 F3000
G1 X-5.000 Y5.000 E13.20842 F3000
G1 X-5.000 Y-5.000 E14.04842 F3000
; Path: PERIMETER_INNER (4 moves)
G1 E12.54842 F1500 ; retract
G0 X-4.600 Y-4.600 F9000 ; travel to start
G1 E14.04842 F1500 ; unretract
G1 X4.600 Y-4.600 E14.82122 F3600
G1 X4.600 Y4.600 E15.59402 F3600
G1 X-4.600 Y4.600 E16.36682 F3600
G1 X-4.600 Y-4.600 E17.13962 F3600
; Path: INFILL (1 moves)
G1 E15.63962 F1500 ; retract
G0 X-1.069 Y-2.200 F9000 ; travel to start
G1 E17.13962 F1500 ; unretract
G1 X4.200 Y-2.200 E17.58218 F4800
; Path: INFILL (1 moves)
G1 E16.08218 F1500 ; retract
G0 X0.931 Y-0.200 F9000 ; travel to start
G1 E17.58218 F1500 ; unretract
G1 X4.200 Y-0.200 E17.85675 F4800
; Path: INFILL (1 moves)
G1 E16.35675 F1500 ; retract
G0 X2.931 Y1.800 F9000 ; travel to start
G1 E17.85675 F1500 ; unretract
G1 X4.200 Y1.800 E17.96331 F4800
; Path: INFILL (1 moves)
G1 E16.46331 F1500 ; retract
G0 X-3.069 Y-4.200 F9000 ; travel to start
G1 E17.96331 F1500 ; unretract
G1 X-3.069 Y-4.200 E17.96331 F4800
; Path: INFILL (1 moves)
G1 E16.46331 F1500 ; retract
G0 X-1.069 Y-4.200 F9000 ; travel to start
G1 E17.96331 F1500 ; unretract
G1 X-1.069 Y-2.200 E18.13131 F4800
; Path: INFILL (1 moves)
G1 E16.63131 F1500 ; retract
G0 X0.931 Y-4.200 F9000 ; travel to start
G1 E18.13131 F1500 ; unretract
G1 X0.931 Y-0.200 E18.46731 F4800
; Path: INFILL (1 moves)
G1 E16.96731 F1500 ; retract
G0 X2.931 Y-4.200 F9000 ; travel to start
G1 E18.46731 F1500 ; unretract
G1 X2.931 Y1.800 E18.97131 F4800
; Path: INFILL (1 moves)
G1 E17.47131 F1500 ; retract
G0 X-4.200 Y-1.069 F9000 ; travel to start
G1 E18.97131 F1500 ; unretract
G1 X-2.200 Y-1.069 E19.13931 F4800
; Path: INFILL (1 moves)
G1 E17.63931 F1500 ; retract
G0 X-4.200 Y0.931 F9000 ; travel to start
G1 E19.13931 F1500 ; unretract
G1 X-0.200 Y0.931 E19.47531 F4800
; Path: INFILL (1 moves)
G1 E17.97531 F1500 ; retract
G0 X-4.200 Y2.931 F9000 ; travel to start
G1 E19.47531 F1500 ; unretract
G1 X1.800 Y2.931 E19.97931 F4800
; Path: INFILL (1 moves)
G1 E18.47931 F1500 ; retract
G0 X-2.200 Y-1.069 F9000 ; travel to start
G1 E19.97931 F1500 ; unretract
G1 X-2.200 Y4.200 E20.42188 F4800
; Path: INFILL (1 moves)
G1 E18.92188 F1500 ; retract
G0 X-0.200 Y0.931 F9000 ; travel to start
G1 E20.42188 F1500 ; unretract
G1 X-0.200 Y4.200 E20.69644 F4800
; Path: INFILL (1 moves)
G1 E19.19644 F1500 ; retract
G0 X1.800 Y2.931 F9000 ; travel to start
G1 E20.69644 F1500 ; unretract
G1 X1.800 Y4.200 E20.80301 F4800
; Path: INFILL (1 moves)
G1 E19.30301 F1500 ; retract
G0 X-4.200 Y-4.200 F9000 ; travel to start
G1 E20.80301 F1500 ; unretract
G1 X4.200 Y-4.200 E21.50861 F4800
; Path: INFILL (1 moves)
G1 E20.00861 F1500 ; retract
G0 X-4.200 Y-2.200 F9000 ; travel to start
G1 E21.50861 F1500 ; unretract
G1 X4.200 Y-2.200 E22.21421 F4800
; Path: INFILL (1 moves)
G1 E20.71421 F1500 ; retract
G0 X-4.200 Y-0.200 F9000 ; travel to start
G1 E22.21421 F1500 ; unretract
G1 X4.200 Y-0.200 E22.91981 F4800
; Path: INFILL (1 moves)
G1 E21.41981 F1500 ; retract
G0 X-4.200 Y1.800 F9000 ; travel to start
G1 E22.91981 F1500 ; unretract
G1 X4.200 Y1.800 E23.62541 F4800
; Path: INFILL (1 moves)
G1 E22.12541 F1500 ; retract
G0 X-4.200 Y3.800 F9000 ; travel to start
G1 E23.62541 F1500 ; unretract
G1 X4.200 Y3.800 E24.33101 F4800
; Path: INFILL (1 moves)
G1 E22.83101 F1500 ; retract
G0 X-4.200 Y-4.200 F9000 ; travel to start
G1 E24.33101 F1500 ; unretract
G1 X-4.200 Y4.200 E25.03661 F4800
; Path: INFILL (1 moves)
G1 E23.53661 F1500 ; retract
G0 X-2.200 Y-4.200 F9000 ; travel to start
G1 E25.03661 F1500 ; unretract
G1 X-2.200 Y4.200 E25.74221 F4800
; Path: INFILL (1 moves)
G1 E24.24221 F1500 ; retract
G0 X-0.200 Y-4.200 F9000 ; travel to start
G1 E25.74221 F1500 ; unretract
G1 X-0.200 Y4.200 E26.44781 F4800
; Path: INFILL (1 moves)
G1 E24.94781 F1500 ; retract
G0 X1.800 Y-4.200 F9000 ; travel to start
G1 E26.44781 F1500 ; unretract
G1 X1.800 Y4.200 E27.15341 F4800
; Path: INFILL (1 moves)
G1 E25.65341 F1500 ; retract
G0 X3.800 Y-4.200 F9000 ; travel to start
G1 E27.15341 F1500 ; unretract
G1 X3.800 Y4.200 E27.85901 F4800
;
; LAYER 1
; Z: -4.800
G1 Z-4.800 F300 ; move to layer height
; Path: PERIMETER_OUTER (8 moves)
G1 E26.35901 F1500 ; retract
G0 X-5.000 Y-5.000 F9000 ; travel to start
G1 E27.85901 F1500 ; unretract
G1 X-4.800 Y-5.000 E27.87581 F3000
G1 X5.000 Y-5.000 E28.69901 F3000
G1 X5.000 Y-4.800 E28.71581 F3000
G1 X5.000 Y5.000 E29.53901 F3000
G1 X4.800 Y5.000 E29.55581 F3000
G1 X-5.000 Y5.000 E30.37901 F3000
G1 X-5.000 Y-4.800 E31.20221 F3000
G1 X-5.000 Y-5.000 E31.21901 F3000
; Path: PERIMETER_INNER (8 moves)
G1 E29.71901 F1500 ; retract
G0 X-4.600 Y-4.600 F9000 ; travel to start
G1 E31.21901 F1500 ; unretract
G1 X-4.800 Y-4.600 E31.23581 F3600
G1 X4.600 Y-4.600 E32.02541 F3600
G1 X4.600 Y-4.800 E32.04221 F3600
G1 X4.600 Y4.600 E32.83181 F3600
G1 X4.800 Y4.600 E32.84861 F3600
G1 X-4.600 Y4.600 E33.63821 F3600
G1 X-4.600 Y-4.800 E34.42781 F3600
G1 X-4.600 Y-4.600 E34.44461 F3600
; Path: INFILL (1 moves)
G1 E32.94461 F1500 ; retract
G0 X-4.200 Y-2.800 F9000 ; travel to start
G1 E34.44461 F1500 ; unretract
G1 X4.200 Y-2.800 E35.15021 F4800
; Path: INFILL (1 moves)
G1 E33.65021 F1500 ; retract
G0 X-4.200 Y-0.800 F9000 ; travel to start
G1 E35.15021 F1500 ; unretract
G1 X4.200 Y-0.800 E35.85581 F4800
; Path: INFILL (1 moves)
G1 E34.35581 F1500 ; retract
G0 X-4.200 Y1.200 F9000 ; travel to start
G1 E35.85581 F1500 ; unretract
G1 X4.200 Y1.200 E36.56141 F4800
; Path: INFILL (1 moves)
G1 E35.06141 F1500 ; retract
G0 X-4.200 Y3.200 F9000 ; travel to start
G1 E36.56141 F1500 ; unretract
G1 X4.200 Y3.200 E37.26701 F4800
; Path: INFILL (1 moves)
G1 E35.76701 F1500 ; retract
G0 X-2.800 Y-4.200 F9000 ; travel to start
G1 E37.26701 F1500 ; unretract
G1 X-2.800 Y4.200 E37.97261 F4800
; Path: INFILL (1 moves)
G1 E36.47261 F1500 ; retract
G0 X-0.800 Y-4.200 F9000 ; travel to start
G1 E37.97261 F1500 ; unretract
G1 X-0.800 Y4.200 E38.67821 F4800
; Path: INFILL (1 moves)
G1 E37.17821 F1500 ; retract
G0 X1.200 Y-4.200 F9000 ; travel to start
G1 E38.67821 F1500 ; unretract
G1 X1.200 Y4.200 E39.38381 F4800
; Path: INFILL (1 moves)
G1 E37.88381 F1500 ; retract
G0 X3.200 Y-4.200 F9000 ; travel to start
G1 E39.38381 F1500 ; unretract
G1 X3.200 Y4.200 E40.08941 F4800
;
; LAYER 2
; Z: -4.600
G1 Z-4.600 F300 ; move to layer height
; Path: PERIMETER_OUTER (8 moves)
G1 E38.58941 F1500 ; retract
G0 X-5.000 Y-5.000 F9000 ; travel to start
G1 E40.08941 F1500 ; unretract
G1 X-4.600 Y-5.000 E40.12301 F3000
G1 X5.000 Y-5.000 E40.92941 F3000
G1 X5.000 Y-4.600 E40.96301 F3000
G1 X5.000 Y5.000 E41.76941 F3000
G1 X4.600 Y5.000 E41.80301 F3000
G1 X-5.000 Y5.000 E42.60941 F3000
G1 X-5.000 Y-4.600 E43.41581 F3000
G1 X-5.000 Y-5.000 E43.44941 F3000
; Path: PERIMETER_INNER (8 moves)
G1 E41.94941 F1500 ; retract
G0 X-4.600 Y-4.600 F9000 ; travel to start
G1 E43.44941 F1500 ; unretract
G1 X-4.600 Y-4.600 E43.44941 F3600
G1 X4.600 Y-4.600 E44.22221 F3600
G1 X4.600 Y-4.600 E44.22221 F3600
G1 X4.600 Y4.600 E44.99501 F3600
G1 X4.600 Y4.600 E44.99501 F3600
G1 X-4.600 Y4.600 E45.76781 F3600
G1 X-4.600 Y-4.600 E46.54061 F3600
G1 X-4.600 Y-4.600 E46.54061 F3600
; Path: INFILL (1 moves)
G1 E45.04061 F1500 ; retract
G0 X-4.200 Y-2.600 F9000 ; travel to start
G1 E46.54061 F1500 ; unretract
G1 X4.200 Y-2.600 E47.24621 F4800
; Path: INFILL (1 moves)
G1 E45.74621 F1500 ; retract
G0 X-4.200 Y-0.600 F9000 ; travel to start
G1 E47.24621 F1500 ; unretract
G1 X4.200 Y-0.600 E47.95181 F4800
; Path: INFILL (1 moves)
G1 E46.45181 F1500 ; retract
G0 X-4.200 Y1.400 F9000 ; travel to start
G1 E47.95181 F1500 ; unretract
G1 X4.200 Y1.400 E48.65741 F4800
; Path: INFILL (1 moves)
G1 E47.15741 F1500 ; retract
G0 X-4.200 Y3.400 F9000 ; travel to start
G1 E48.65741 F1500 ; unretract
G1 X4.200 Y3.400 E49.36301 F4800
; Path: INFILL (1 moves)
G1 E47.86301 F1500 ; retract
G0 X-2.600 Y-4.200 F9000 ; travel to start
G1 E49.36301 F1500 ; unretract
G1 X-2.600 Y4.200 E50.06861 F4800
; Path: INFILL (1 moves)
G1 E48.56861 F1500 ; retract
G0 X-0.600 Y-4.200 F9000 ; travel to start
G1 E50.06861 F1500 ; unretract
G1 X-0.600 Y4.200 E50.77421 F4800
; Path: INFILL (1 moves)
G1 E49.27421 F1500 ; retract
G0 X1.400 Y-4.200 F9000 ; travel to start
G1 E50.77421 F1500 ; unretract
G1 X1.400 Y4.200 E51.47981 F4800
; Path: INFILL (1 moves)
G1 E49.97981 F1500 ; retract
G0 X3.400 Y-4.200 F9000 ; travel to start
G1 E51.47981 F1500 ; unretract
G1 X3.400 Y4.200 E52.18541 F4800
;
; LAYER 3
; Z: -4.400
G1 Z-4.400 F300 ; move to layer height
; Path: PERIMETER_OUTER (8 moves)
G1 E50.68541 F1500 ; retract
G0 X-5.000 Y-5.000 F9000 ; travel to start
G1 E52.18541 F1500 ; unretract
G1 X-4.400 Y-5.000 E52.23581 F3000
G1 X5.000 Y-5.000 E53.02541 F3000
G1 X5.000 Y-4.400 E53.07581 F3000
G1 X5.000 Y5.000 E53.86541 F3000
G1 X4.400 Y5.000 E53.91581 F3000
G1 X-5.000 Y5.000 E54.70541 F3000
G1 X-5.000 Y-4.400 E55.49501 F3000
G1 X-5.000 Y-5.000 E55.54541 F3000
; Path: PERIMETER_INNER (8 moves)
G1 E54.04541 F1500 ; retract
G0 X-4.600 Y-4.600 F9000 ; travel to start
G1 E55.54541 F1500 ; unretract
G1 X-4.400 Y-4.600 E55.56221 F3600
G1 X4.600 Y-4.600 E56.31821 F3600
G1 X4.600 Y-4.400 E56.33501 F3600
G1 X4.600 Y4.600 E57.09101 F3600
G1 X4.400 Y4.600 E57.10781 F3600
G1 X-4.600 Y4.600 E57.86381 F3600
G1 X-4.600 Y-4.400 E58.61981 F3600
G1 X-4.600 Y-4.600 E58.63661 F3600
; Path: INFILL (1 moves)
G1 E57.13661 F1500 ; retract
G0 X-4.200 Y-2.400 F9000 ; travel to start
G1 E58.63661 F1500 ; unretract
G1 X4.200 Y-2.400 E59.34221 F4800
; Path: INFILL (1 moves)
G1 E57.84221 F1500 ; retract
G0 X-4.200 Y-0.400 F9000 ; travel to start
G1 E59.34221 F1500 ; unretract
G1 X4.200 Y-0.400 E60.04781 F4800
; Path: INFILL (1 moves)
G1 E58.54781 F1500 ; retract
G0 X-4.200 Y1.600 F9000 ; travel to start
G1 E60.04781 F1500 ; unretract
G1 X4.200 Y1.600 E60.75341 F4800
; Path: INFILL (1 moves)
G1 E59.25341 F1500 ; retract
G0 X-4.200 Y3.600 F9000 ; travel to start
G1 E60.75341 F1500 ; unretract
G1 X4.200 Y3.600 E61.45901 F4800
; Path: INFILL (1 moves)
G1 E59.95901 F1500 ; retract
G0 X-2.400 Y-4.200 F9000 ; travel to start
G1 E61.45901 F1500 ; unretract
G1 X-2.400 Y4.200 E62.16461 F4800
; Path: INFILL (1 moves)
G1 E60.66461 F1500 ; retract
G0 X-0.400 Y-4.200 F9000 ; travel to start
G1 E62.16461 F1500 ; unretract
G1 X-0.400 Y4.200 E62.87021 F4800
; Path: INFILL (1 moves)
G1 E61.37021 F1500 ; retract
G0 X1.600 Y-4.200 F9000 ; travel to start
G1 E62.87021 F1500 ; unretract
G1 X1.600 Y4.200 E63.57581 F4800
; Path: INFILL (1 moves)
G1 E62.07581 F1500 ; retract
G0 X3.600 Y-4.200 F9000 ; travel to start
G1 E63.57581 F1500 ; unretract
G1 X3.600 Y4.200 E64.28141 F4800
;
; LAYER 4
; Z: -4.200
G1 Z-4.200 F300 ; move to layer height
; Path: PERIMETER_OUTER (8 moves)
G1 E62.78141 F1500 ; retract
G0 X-5.000 Y-5.000 F9000 ; travel to start
G1 E64.28141 F1500 ; unretract
G1 X-4.200 Y-5.000 E64.34861 F3000
G1 X5.000 Y-5.000 E65.12141 F3000
G1 X5.000 Y-4.200 E65.18861 F3000
G1 X5.000 Y5.000 E65.96141 F3000
G1 X4.200 Y5.000 E66.02861 F3000
G1 X-5.000 Y5.000 E66.80141 F3000
G1 X-5.000 Y-4.200 E67.57421 F3000
G1 X-5.000 Y-5.000 E67.64141 F3000
; Path: PERIMETER_INNER (8 moves)
G1 E66.14141 F1500 ; retract
G0 X-4.600 Y-4.600 F9000 ; travel to start
G1 E67.64141 F1500 ; unretract
G1 X-4.200 Y-4.600 E67.67501 F3600
G1 X4.600 Y-4.600 E68.41421 F3600
G1 X4.600 Y-4.200 E68.44781 F3600
G1 X4.600 Y4.600 E69.18701 F3600
G1 X4.200 Y4.600 E69.22061 F3600
G1 X-4.600 Y4.600 E69.95981 F3600
G1 X-4.600 Y-4.200 E70.69901 F3600
G1 X-4.600 Y-4.600 E70.73261 F3600
; Path: INFILL (1 moves)
G1 E69.23261 F1500 ; retract
G0 X-4.200 Y-2.200 F9000 ; travel to start
G1 E70.73261 F1500 ; unretract
G1 X4.200 Y-2.200 E71.43821 F4800
; Path: INFILL (1 moves)
G1 E69.93821 F1500 ; retract
G0 X-4.200 Y-0.200 F9000 ; travel to start
G1 E71.43821 F1500 ; unretract
G1 X4.200 Y-0.200 E72.14381 F4800
; Path: INFILL (1 moves)
G1 E70.64381 F1500 ; retract
G0 X-4.200 Y1.800 F9000 ; travel to start
G1 E72.14381 F1500 ; unretract
G1 X4.200 Y1.800 E72.84941 F4800
; Path: INFILL (1 moves)
G1 E71.34941 F1500 ; retract
G0 X-4.200 Y3.800 F9000 ; travel to start
G1 E72.84941 F1500 ; unretract
G1 X4.200 Y3.800 E73.55501 F4800
; Path: INFILL (1 moves)
G1 E72.05501 F1500 ; retract
G0 X-2.200 Y-4.200 F9000 ; travel to start
G1 E73.55501 F1500 ; unretract
G1 X-2.200 Y4.200 E74.26061 F4800
; Path: INFILL (1 moves)
G1 E72.76061 F1500 ; retract
G0 X-0.200 Y-4.200 F9000 ; travel to start
G1 E74.26061 F1500 ; unretract
G1 X-0.200 Y4.200 E74.96621 F4800
; Path: INFILL (1 moves)
G1 E73.46621 F1500 ; retract
G0 X1.800 Y-4.200 F9000 ; travel to start
G1 E74.96621 F1500 ; unretract
G1 X1.800 Y4.200 E75.67181 F4800
; Path: INFILL (1 moves)
G1 E74.17181 F1500 ; retract
G0 X3.800 Y-4.200 F9000 ; travel to start
G1 E75.67181 F1500 ; unretract
G1 X3.800 Y4.200 E76.37741 F4800
;
; LAYER 5
; Z: -4.000
G1 Z-4.000 F300 ; move to layer height
; Path: PERIMETER_OUTER (8 moves)
G1 E74.87741 F1500 ; retract
G0 X-5.000 Y-5.000 F9000 ; travel to start
G1 E76.37741 F1500 ; unretract
G1 X-4.000 Y-5.000 E76.46141 F3000
G1 X5.000 Y-5.000 E77.21741 F3000
G1 X5.000 Y-4.000 E77.30141 F3000
G1 X5.000 Y5.000 E78.05741 F3000
G1 X4.000 Y5.000 E78.14141 F3000
G1 X-5.000 Y5.000 E78.89741 F3000
G1 X-5.000 Y-4.000 E79.65341 F3000
G1 X-5.000 Y-5.000 E79.73741 F3000
; Path: PERIMETER_INNER (8 moves)
G1 E78.23741 F1500 ; retract
G0 X-4.600 Y-4.600 F9000 ; travel to start
G1 E79.73741 F1500 ; unretract
G1 X-4.000 Y-4.600 E79.78781 F3600
G1 X4.600 Y-4.600 E80.51021 F3600
G1 X4.600 Y-4.000 E80.56061 F3600
G1 X4.600 Y4.600 E81.28301 F3600
G1 X4.000 Y4.600 E81.33341 F3600
G1 X-4.600 Y4.600 E82.05581 F3600
G1 X-4.600 Y-4.000 E82.77821 F3600
G1 X-4.600 Y-4.600 E82.82861 F3600
; Path: INFILL (1 moves)
G1 E81.32861 F1500 ; retract
G0 X-4.200 Y-2.200 F9000 ; travel to start
G1 E82.82861 F1500 ; unretract
G1 X4.200 Y-2.200 E83.53421 F4800
; Path: INFILL (1 moves)
G1 E82.03421 F1500 ; retract
G0 X-4.200 Y-0.200 F9000 ; travel to start
G1 E83.53421 F1500 ; unretract
G1 X4.200 Y-0.200 E84.23981 F4800
; Path: INFILL (1 moves)
