; Generated by OrcaSlicer Odin
; https://github.com/SoftFever/OrcaSlicer
;
; Total layers: 50
; Estimated print time: 1.6 minutes
; Filament used: 5.76 m
; Bed temperature: 60°C
; Extruder temperature: 200°C
; Filament diameter: 1.75 mm
;
; Start sequence
G21 ; set units to millimeters
G90 ; use absolute coordinates
M82 ; use absolute distances for extrusion
G92 E0 ; reset extruder position
G28 ; home all axes
M140 S60 ; set bed temperature
M104 S200 ; set extruder temperature
M190 S60 ; wait for bed temperature
M109 S200 ; wait for extruder temperature
G1 Z2.0 F3000 ; move Z to 2mm
G1 X10.1 Y20 Z0.28 F5000.0 ; move to start position
G1 X10.1 Y200.0 Z0.28 F1500.0 E15 ; draw 1st line
G1 X10.4 Y200.0 Z0.28 F5000.0 ; move to side a little
G1 X10.4 Y20 Z0.28 F1500.0 E30 ; draw 2nd line
G92 E0 ; reset extruder
;
; LAYER 0
; Z: -5.000
G1 Z-5.000 F300 ; move to layer height
; Path: PERIMETER_OUTER (3 moves)
G1 E-1.50000 F1500 ; retract
G0 X-5.000 Y-5.000 F9000 ; travel to start
G1 E0.00000 F1500 ; unretract
G1 X5.000 Y-5.000 E0.84000 F3000
G1 X5.000 Y5.000 E1.68000 F3000
G1 X-5.000 Y-5.000 E2.86794 F3000
; Path: PERIMETER_INNER (3 moves)
G1 E1.36794 F1500 ; retract
G0 X-4.034 Y-4.600 F9000 ; travel to start
G1 E2.86794 F1500 ; unretract
G1 X4.600 Y-4.600 E3.59322 F3600
G1 X4.600 Y4.034 E4.31850 F3600
G1 X-4.034 Y-4.600 E5.34421 F3600
; Path: PERIMETER_OUTER (3 moves)
G1 E3.84421 F1500 ; retract
G0 X-5.000 Y-5.000 F9000 ; travel to start
G1 E5.34421 F1500 ; unretract
G1 X5.000 Y5.000 E6.53215 F3000
G1 X-5.000 Y5.000 E7.37215 F3000
G1 X-5.000 Y-5.000 E8.21215 F3000
; Path: PERIMETER_INNER (3 moves)
G1 E6.71215 F1500 ; retract
G0 X-4.600 Y-4.034 F9000 ; travel to start
G1 E8.21215 F1500 ; unretract
G1 X4.034 Y4.600 E9.23785 F3600
G1 X-4.600 Y4.600 E9.96313 F3600
G1 X-4.600 Y-4.034 E10.68842 F3600
; Path: PERIMETER_OUTER (4 moves)
G1 E9.18842 F1500 ; retract
G0 X-5.000 Y-5.000 F9000 ; travel to start
G1 E10.68842 F1500 ; unretract
G1 X5.000 Y-5.000 E11.52842 F3000
G1 X5.000 Y5.000 E12.36842 F3000
G1 X-5.000 Y5.000 E13.20842 F3000
G1 X-5.000 Y-5.000 E14.04842 F3000
; Path: PERIMETER_INNER (4 moves)
G1 E12.54842 F1500 ; retract
G0 X-4.600 Y-4.600 F9000 ; travel to start
G1 E14.04842 F1500 ; unretract
G1 X4.600 Y-4.600 E14.82122 F3600
G1 X4.600 Y4.600 E15.59402 F3600
G1 X-4.600 Y4.600 E16.36682 F3600
G1 X-4.600 Y-4.600 E17.13962 F3600
; Path: INFILL (1 moves)
G1 E15.63962 F1500 ; retract
G0 X4.002 Y-4.200 F9000 ; travel to start
G1 E17.13962 F1500 ; unretract
G1 X4.200 Y-4.002 E17.16309 F4800
; Path: INFILL (1 moves)
G1 E15.66309 F1500 ; retract
G0 X1.174 Y-4.200 F9000 ; travel to start
G1 E17.16309 F1500 ; unretract
G1 X4.200 Y-1.174 E17.52256 F4800
; Path: INFILL (1 moves)
G1 E16.02256 F1500 ; retract
G0 X-1.654 Y-4.200 F9000 ; travel to start
G1 E17.52256 F1500 ; unretract
G1 X4.200 Y1.654 E18.21803 F4800
; Path: INFILL (1 moves)
G1 E16.71803 F1500 ; retract
G0 X-4.200 Y-1.654 F9000 ; travel to start
G1 E18.21803 F1500 ; unretract
G1 X1.654 Y4.200 E18.91349 F4800
; Path: INFILL (1 moves)
G1 E17.41349 F1500 ; retract
G0 X-4.200 Y1.174 F9000 ; travel to start
G1 E18.91349 F1500 ; unretract
G1 X-1.174 Y4.200 E19.27296 F4800
; Path: INFILL (1 moves)
G1 E17.77296 F1500 ; retract
G0 X-4.200 Y4.002 F9000 ; travel to start
G1 E19.27296 F1500 ; unretract
G1 X-4.002 Y4.200 E19.29643 F4800
; Path: INFILL (1 moves)
G1 E17.79643 F1500 ; retract
G0 X2.871 Y-4.200 F9000 ; travel to start
G1 E19.29643 F1500 ; unretract
G1 X4.200 Y-2.871 E19.45430 F4800
; Path: INFILL (1 moves)
G1 E17.95430 F1500 ; retract
G0 X0.043 Y-4.200 F9000 ; travel to start
G1 E19.45430 F1500 ; unretract
G1 X4.200 Y-0.043 E19.94817 F4800
; Path: INFILL (1 moves)
G1 E18.44817 F1500 ; retract
G0 X-2.786 Y-4.200 F9000 ; travel to start
G1 E19.94817 F1500 ; unretract
G1 X4.200 Y2.786 E20.77804 F4800
; Path: INFILL (1 moves)
G1 E19.27804 F1500 ; retract
G0 X-4.200 Y-2.786 F9000 ; travel to start
G1 E20.77804 F1500 ; unretract
G1 X2.786 Y4.200 E21.60791 F4800
; Path: INFILL (1 moves)
G1 E20.10791 F1500 ; retract
G0 X-4.200 Y0.043 F9000 ; travel to start
G1 E21.60791 F1500 ; unretract
G1 X-0.043 Y4.200 E22.10178 F4800
; Path: INFILL (1 moves)
G1 E20.60178 F1500 ; retract
G0 X-4.200 Y2.871 F9000 ; travel to start
G1 E22.10178 F1500 ; unretract
G1 X-2.871 Y4.200 E22.25965 F4800
;
; LAYER 1
; Z: -4.800
G1 Z-4.800 F300 ; move to layer height
; Path: PERIMETER_OUTER (8 moves)
G1 E20.75965 F1500 ; retract
G0 X-5.000 Y-5.000 F9000 ; travel to start
G1 E22.25965 F1500 ; unretract
G1 X-4.800 Y-5.000 E22.27645 F3000
G1 X5.000 Y-5.000 E23.09965 F3000
G1 X5.000 Y-4.800 E23.11645 F3000
G1 X5.000 Y5.000 E23.93965 F3000
G1 X4.800 Y5.000 E23.95645 F3000
G1 X-5.000 Y5.000 E24.77965 F3000
G1 X-5.000 Y-4.800 E25.60285 F3000
G1 X-5.000 Y-5.000 E25.61965 F3000
; Path: PERIMETER_INNER (8 moves)
G1 E24.11965 F1500 ; retract
G0 X-4.600 Y-4.600 F9000 ; travel to start
G1 E25.61965 F1500 ; unretract
G1 X-4.800 Y-4.600 E25.63645 F3600
G1 X4.600 Y-4.600 E26.42605 F3600
G1 X4.600 Y-4.800 E26.44285 F3600
G1 X4.600 Y4.600 E27.23245 F3600
G1 X4.800 Y4.600 E27.24925 F3600
G1 X-4.600 Y4.600 E28.03885 F3600
G1 X-4.600 Y-4.800 E28.82845 F3600
G1 X-4.600 Y-4.600 E28.84525 F3600
; Path: INFILL (1 moves)
G1 E27.34525 F1500 ; retract
G0 X4.200 Y3.985 F9000 ; travel to start
G1 E28.84525 F1500 ; unretract
G1 X3.985 Y4.200 E28.87076 F4800
; Path: INFILL (1 moves)
G1 E27.37076 F1500 ; retract
G0 X4.200 Y1.157 F9000 ; travel to start
G1 E28.87076 F1500 ; unretract
G1 X1.157 Y4.200 E29.23226 F4800
; Path: INFILL (1 moves)
G1 E27.73226 F1500 ; retract
G0 X4.200 Y-1.672 F9000 ; travel to start
G1 E29.23226 F1500 ; unretract
G1 X-1.672 Y4.200 E29.92977 F4800
; Path: INFILL (1 moves)
G1 E28.42977 F1500 ; retract
G0 X3.900 Y-4.200 F9000 ; travel to start
G1 E29.92977 F1500 ; unretract
G1 X-4.200 Y3.900 E30.89200 F4800
; Path: INFILL (1 moves)
G1 E29.39200 F1500 ; retract
G0 X1.072 Y-4.200 F9000 ; travel to start
G1 E30.89200 F1500 ; unretract
G1 X-4.200 Y1.072 E31.51823 F4800
; Path: INFILL (1 moves)
G1 E30.01823 F1500 ; retract
G0 X-1.757 Y-4.200 F9000 ; travel to start
G1 E31.51823 F1500 ; unretract
G1 X-4.200 Y-1.757 E31.80846 F4800
;
; LAYER 2
; Z: -4.600
G1 Z-4.600 F300 ; move to layer height
; Path: PERIMETER_OUTER (8 moves)
G1 E30.30846 F1500 ; retract
G0 X-5.000 Y-5.000 F9000 ; travel to start
G1 E31.80846 F1500 ; unretract
G1 X-4.600 Y-5.000 E31.84206 F3000
G1 X5.000 Y-5.000 E32.64846 F3000
G1 X5.000 Y-4.600 E32.68206 F3000
G1 X5.000 Y5.000 E33.48846 F3000
G1 X4.600 Y5.000 E33.52206 F3000
G1 X-5.000 Y5.000 E34.32846 F3000
G1 X-5.000 Y-4.600 E35.13486 F3000
G1 X-5.000 Y-5.000 E35.16846 F3000
; Path: PERIMETER_INNER (8 moves)
G1 E33.66846 F1500 ; retract
G0 X-4.600 Y-4.600 F9000 ; travel to start
G1 E35.16846 F1500 ; unretract
G1 X-4.600 Y-4.600 E35.16846 F3600
G1 X4.600 Y-4.600 E35.94126 F3600
G1 X4.600 Y-4.600 E35.94126 F3600
G1 X4.600 Y4.600 E36.71406 F3600
G1 X4.600 Y4.600 E36.71406 F3600
G1 X-4.600 Y4.600 E37.48686 F3600
G1 X-4.600 Y-4.600 E38.25966 F3600
G1 X-4.600 Y-4.600 E38.25966 F3600
; Path: INFILL (1 moves)
G1 E36.75966 F1500 ; retract
G0 X4.200 Y-4.485 F9000 ; travel to start
G1 E38.25966 F1500 ; unretract
G1 X4.200 Y-4.485 E38.25966 F4800
; Path: INFILL (1 moves)
G1 E36.75966 F1500 ; retract
G0 X1.657 Y-4.200 F9000 ; travel to start
G1 E38.25966 F1500 ; unretract
G1 X4.200 Y-1.657 E38.56177 F4800
; Path: INFILL (1 moves)
G1 E37.06177 F1500 ; retract
G0 X-1.172 Y-4.200 F9000 ; travel to start
G1 E38.56177 F1500 ; unretract
G1 X4.200 Y1.172 E39.19989 F4800
; Path: INFILL (1 moves)
G1 E37.69989 F1500 ; retract
G0 X-4.200 Y-4.400 F9000 ; travel to start
G1 E39.19989 F1500 ; unretract
G1 X-4.200 Y-4.400 E39.19989 F4800
; Path: INFILL (1 moves)
G1 E37.69989 F1500 ; retract
G0 X-4.000 Y-4.200 F9000 ; travel to start
G1 E39.19989 F1500 ; unretract
G1 X4.200 Y4.000 E40.17400 F4800
; Path: INFILL (1 moves)
G1 E38.67400 F1500 ; retract
G0 X-4.200 Y-1.572 F9000 ; travel to start
G1 E40.17400 F1500 ; unretract
G1 X1.572 Y4.200 E40.85962 F4800
; Path: INFILL (1 moves)
G1 E39.35962 F1500 ; retract
G0 X-4.200 Y1.257 F9000 ; travel to start
G1 E40.85962 F1500 ; unretract
G1 X-1.257 Y4.200 E41.20925 F4800
; Path: INFILL (1 moves)
G1 E39.70925 F1500 ; retract
G0 X-4.200 Y4.085 F9000 ; travel to start
G1 E41.20925 F1500 ; unretract
G1 X-4.085 Y4.200 E41.22288 F4800
;
; LAYER 3
; Z: -4.400
G1 Z-4.400 F300 ; move to layer height
; Path: PERIMETER_OUTER (8 moves)
G1 E39.72288 F1500 ; retract
G0 X-5.000 Y-5.000 F9000 ; travel to start
G1 E41.22288 F1500 ; unretract
G1 X-4.400 Y-5.000 E41.27328 F3000
G1 X5.000 Y-5.000 E42.06288 F3000
G1 X5.000 Y-4.400 E42.11328 F3000
G1 X5.000 Y5.000 E42.90288 F3000
G1 X4.400 Y5.000 E42.95328 F3000
G1 X-5.000 Y5.000 E43.74288 F3000
G1 X-5.000 Y-4.400 E44.53248 F3000
G1 X-5.000 Y-5.000 E44.58288 F3000
; Path: PERIMETER_INNER (8 moves)
G1 E43.08288 F1500 ; retract
G0 X-4.600 Y-4.600 F9000 ; travel to start
G1 E44.58288 F1500 ; unretract
G1 X-4.400 Y-4.600 E44.59968 F3600
G1 X4.600 Y-4.600 E45.35568 F3600
G1 X4.600 Y-4.400 E45.37248 F3600
G1 X4.600 Y4.600 E46.12848 F3600
G1 X4.400 Y4.600 E46.14528 F3600
G1 X-4.600 Y4.600 E46.90128 F3600
G1 X-4.600 Y-4.400 E47.65728 F3600
G1 X-4.600 Y-4.600 E47.67408 F3600
; Path: INFILL (1 moves)
G1 E46.17408 F1500 ; retract
G0 X4.200 Y4.185 F9000 ; travel to start
G1 E47.67408 F1500 ; unretract
G1 X4.185 Y4.200 E47.67583 F4800
; Path: INFILL (1 moves)
G1 E46.17583 F1500 ; retract
G0 X4.200 Y1.357 F9000 ; travel to start
G1 E47.67583 F1500 ; unretract
G1 X1.357 Y4.200 E48.01358 F4800
; Path: INFILL (1 moves)
G1 E46.51358 F1500 ; retract
G0 X4.200 Y-1.472 F9000 ; travel to start
G1 E48.01358 F1500 ; unretract
G1 X-1.472 Y4.200 E48.68733 F4800
; Path: INFILL (1 moves)
G1 E47.18733 F1500 ; retract
G0 X4.100 Y-4.200 F9000 ; travel to start
G1 E48.68733 F1500 ; unretract
G1 X-4.200 Y4.100 E49.67332 F4800
; Path: INFILL (1 moves)
G1 E48.17332 F1500 ; retract
G0 X1.272 Y-4.200 F9000 ; travel to start
G1 E49.67332 F1500 ; unretract
G1 X-4.200 Y1.272 E50.32331 F4800
; Path: INFILL (1 moves)
G1 E48.82331 F1500 ; retract
G0 X-1.557 Y-4.200 F9000 ; travel to start
G1 E50.32331 F1500 ; unretract
G1 X-4.200 Y-1.557 E50.63730 F4800
;
; LAYER 4
; Z: -4.200
G1 Z-4.200 F300 ; move to layer height
; Path: PERIMETER_OUTER (8 moves)
G1 E49.13730 F1500 ; retract
G0 X-5.000 Y-5.000 F9000 ; travel to start
G1 E50.63730 F1500 ; unretract
G1 X-4.200 Y-5.000 E50.70450 F3000
G1 X5.000 Y-5.000 E51.47730 F3000
G1 X5.000 Y-4.200 E51.54450 F3000
G1 X5.000 Y5.000 E52.31730 F3000
G1 X4.200 Y5.000 E52.38450 F3000
G1 X-5.000 Y5.000 E53.15730 F3000
G1 X-5.000 Y-4.200 E53.93010 F3000
G1 X-5.000 Y-5.000 E53.99730 F3000
; Path: PERIMETER_INNER (8 moves)
G1 E52.49730 F1500 ; retract
G0 X-4.600 Y-4.600 F9000 ; travel to start
G1 E53.99730 F1500 ; unretract
G1 X-4.200 Y-4.600 E54.03090 F3600
G1 X4.600 Y-4.600 E54.77010 F3600
G1 X4.600 Y-4.200 E54.80370 F3600
G1 X4.600 Y4.600 E55.54290 F3600
G1 X4.200 Y4.600 E55.57650 F3600
G1 X-4.600 Y4.600 E56.31570 F3600
G1 X-4.600 Y-4.200 E57.05490 F3600
G1 X-4.600 Y-4.600 E57.08850 F3600
; Path: INFILL (1 moves)
G1 E55.58850 F1500 ; retract
G0 X2.871 Y-4.200 F9000 ; travel to start
G1 E57.08850 F1500 ; unretract
G1 X4.200 Y-2.871 E57.24637 F4800
; Path: INFILL (1 moves)
G1 E55.74637 F1500 ; retract
G0 X0.043 Y-4.200 F9000 ; travel to start
G1 E57.24637 F1500 ; unretract
G1 X4.200 Y-0.043 E57.74023 F4800
; Path: INFILL (1 moves)
G1 E56.24023 F1500 ; retract
G0 X-2.786 Y-4.200 F9000 ; travel to start
G1 E57.74023 F1500 ; unretract
G1 X4.200 Y2.786 E58.57010 F4800
; Path: INFILL (1 moves)
G1 E57.07010 F1500 ; retract
G0 X-4.200 Y-2.786 F9000 ; travel to start
G1 E58.57010 F1500 ; unretract
G1 X2.786 Y4.200 E59.39997 F4800
; Path: INFILL (1 moves)
G1 E57.89997 F1500 ; retract
G0 X-4.200 Y0.043 F9000 ; travel to start
G1 E59.39997 F1500 ; unretract
G1 X-0.043 Y4.200 E59.89384 F4800
; Path: INFILL (1 moves)
G1 E58.39384 F1500 ; retract
G0 X-4.200 Y2.871 F9000 ; travel to start
G1 E59.89384 F1500 ; unretract
G1 X-2.871 Y4.200 E60.05171 F4800
;
; LAYER 5
; Z: -4.000
G1 Z-4.000 F300 ; move to layer height
; Path: PERIMETER_OUTER (8 moves)
G1 E58.55171 F1500 ; retract
G0 X-5.000 Y-5.000 F9000 ; travel to start
G1 E60.05171 F1500 ; unretract
G1 X-4.000 Y-5.000 E60.13571 F3000
G1 X5.000 Y-5.000 E60.89171 F3000
G1 X5.000 Y-4.000 E60.97571 F3000
G1 X5.000 Y5.000 E61.73171 F3000
G1 X4.000 Y5.000 E61.81571 F3000
G1 X-5.000 Y5.000 E62.57171 F3000
G1 X-5.000 Y-4.000 E63.32771 F3000
G1 X-5.000 Y-5.000 E63.41171 F3000
; Path: PERIMETER_INNER (8 moves)
G1 E61.91171 F1500 ; retract
G0 X-4.600 Y-4.600 F9000 ; travel to start
G1 E63.41171 F1500 ; unretract
G1 X-4.000 Y-4.600 E63.46211 F3600
G1 X4.600 Y-4.600 E64.18451 F3600
G1 X4.600 Y-4.000 E64.23491 F3600
G1 X4.600 Y4.600 E64.95731 F3600
G1 X4.000 Y4.600 E65.00771 F3600
G1 X-4.600 Y4.600 E65.73011 F3600
G1 X-4.600 Y-4.000 E66.45251 F3600
G1 X-4.600 Y-4.600 E66.50291 F3600
; Path: INFILL (1 moves)
G1 E65.00291 F1500 ; retract
G0 X4.200 Y2.871 F9000 ; travel to start
G1 E66.50291 F1500 ; unretract
G1 X2.871 Y4.200 E66.66078 F4800
; Path: INFILL (1 moves)
G1 E65.16078 F1500 ; retract
G0 X4.200 Y0.043 F9000 ; travel to start
G1 E66.66078 F1500 ; unretract
G1 X0.043 Y4.200 E67.15465 F4800
; Path: INFILL (1 moves)
G1 E65.65465 F1500 ; retract
G0 X4.200 Y-2.786 F9000 ; travel to start
G1 E67.15465 F1500 ; unretract
G1 X-2.786 Y4.200 E67.98452 F4800
; Path: INFILL (1 moves)
G1 E66.48452 F1500 ; retract
G0 X2.786 Y-4.200 F9000 ; travel to start
G1 E67.98452 F1500 ; unretract
G1 X-4.200 Y2.786 E68.81439 F4800
; Path: INFILL (1 moves)
G1 E67.31439 F1500 ; retract
G0 X-0.043 Y-4.200 F9000 ; travel to start
G1 E68.81439 F1500 ; unretract
G1 X-4.200 Y-0.043 E69.30826 F4800
; Path: INFILL (1 moves)
G1 E67.80826 F1500 ; retract
G0 X-2.871 Y-4.200 F9000 ; travel to start
G1 E69.30826 F1500 ; unretract
G1 X-4.200 Y-2.871 E69.46613 F4800
;
; LAYER 6
; Z: -3.800
G1 Z-3.800 F300 ; move to layer height
; Path: PERIMETER_OUTER (8 moves)
G1 E67.96613 F1500 ; retract
G0 X-5.000 Y-5.000 F9000 ; travel to start
G1 E69.46613 F1500 ; unretract
G1 X-3.800 Y-5.000 E69.56693 F3000
G1 X5.000 Y-5.000 E70.30613 F3000
G1 X5.000 Y-3.800 E70.40693 F3000
G1 X5.000 Y5.000 E71.14613 F3000
G1 X3.800 Y5.000 E71.24693 F3000
G1 X-5.000 Y5.000 E71.98613 F3000
G1 X-5.000 Y-3.800 E72.72533 F3000
G1 X-5.000 Y-5.000 E72.82613 F3000
; Path: PERIMETER_INNER (8 moves)
G1 E71.32613 F1500 ; retract
G0 X-4.600 Y-4.600 F9000 ; travel to start
G1 E72.82613 F1500 ; unretract
G1 X-3.800 Y-4.600 E72.89333 F3600
G1 X4.600 Y-4.600 E73.59893 F3600
G1 X4.600 Y-3.800 E73.66613 F3600
G1 X4.600 Y4.600 E74.37173 F3600
G1 X3.800 Y4.600 E74.43893 F3600
G1 X-4.600 Y4.600 E75.14453 F3600
G1 X-4.600 Y-3.800 E75.85013 F3600
G1 X-4.600 Y-4.600 E75.91733 F3600
; Path: INFILL (1 moves)
G1 E74.41733 F1500 ; retract
G0 X2.871 Y-4.200 F9000 ; travel to start
G1 E75.91733 F1500 ; unretract
G1 X4.200 Y-2.871 E76.07520 F4800
; Path: INFILL (1 moves)
G1 E74.57520 F1500 ; retract
G0 X0.043 Y-4.200 F9000 ; travel to start
G1 E76.07520 F1500 ; unretract
G1 X4.200 Y-0.043 E76.56907 F4800
; Path: INFILL (1 moves)
G1 E75.06907 F1500 ; retract
G0 X-2.786 Y-4.200 F9000 ; travel to start
G1 E76.56907 F1500 ; unretract
G1 X4.200 Y2.786 E77.39893 F4800
; Path: INFILL (1 moves)
G1 E75.89893 F1500 ; retract
G0 X-4.200 Y-2.786 F9000 ; travel to start
G1 E77.39893 F1500 ; unretract
G1 X2.786 Y4.200 E78.22880 F4800
; Path: INFILL (1 moves)
G1 E76.72880 F1500 ; retract
G0 X-4.200 Y0.043 F9000 ; travel to start
G1 E78.22880 F1500 ; unretract
G1 X-0.043 Y4.200 E78.72267 F4800
; Path: INFILL (1 moves)
G1 E77.22267 F1500 ; retract
G0 X-4.200 Y2.871 F9000 ; travel to start
G1 E78.72267 F1500 ; unretract
G1 X-2.871 Y4.200 E78.88054 F4800
;
; LAYER 7
; Z: -3.600
G1 Z-3.600 F300 ; move to layer height
; Path: PERIMETER_OUTER (8 moves)
G1 E77.38054 F1500 ; retract
G0 X-5.000 Y-5.000 F9000 ; travel to start
G1 E78.88054 F1500 ; unretract
G1 X-3.600 Y-5.000 E78.99814 F3000
G1 X5.000 Y-5.000 E79.72054 F3000
